!!!!SEGMENT: pl-stab--10e--005_zebrowski-marcin-jozef--vespere-ex-d-gloria-patri.krn
!!!cenid: 18xx:3421
!!!COM: Żebrowski, Marcin Józef
!!!COM-rismid: pe30020322
!!!CDT: 1702-1770/06/29
!!!CNT: Polish
!!!OPR: Vespere ex D
!!!OTL: Gloria Patri
!!!OMV: 005
!!!PDT: 1801
!!!AGN:
!!!SMS-siglum: PL-STAb
!!!SMS-shelfmark: 10e
!!!SMS-shelfwork: M
!!!SMS-variant:
!!!SMS-altvar:
!!!NIFC-rismid: 301050566
!!!URL-scan: https://repozytorium.nifc.pl/islandora/object/pl-stab%3A2368/datastream/PDF/view
!!!ONB-nifc: UWAGA: części Vespere: 1. Dixit Dominus, 2. Detorente, 3. Gloria Patri (razem z Sicut erat), 4. Magnificat, 5. Gloria Patri (z Sicut erat i Amen)
!!!key: G
**kern	**fba	**dynam	**kern	**kern	**kern	**text	**kern	**text	**kern	**kern
*part7	*part7	*part7	*part6	*part5	*part4	*part4	*part3	*part3	*part2	*part1
*staff7	*	*	*staff6	*staff5	*staff4	*staff4	*staff3	*staff3	*staff2	*staff1
*IGcont	*	*	*	*	*IGcoro	*	*IGcoro	*	*	*
*ICklav	*	*	*ICstr	*ICstr	*ICvox	*	*ICvox	*	*ICbrass	*ICbrass
*Iorgan	*	*	*Ivioln	*Ivioln	*Ibass	*	*Isoprn	*	*Icor	*Icor
*I"Organo	*	*	*I"Violino Secundo	*I"Violino Primo	*I"Baſso	*	*I"Canto	*	*I"Cornu Secundo	*I"Cornu Primo in D.
*I'org	*	*	*I'vl 2	*I'vl 1	*I'B	*	*I'S	*	*I'cor 2 in D	*I'cor 1 in D
*clefF4	*	*	*clefG2	*clefG2	*clefF4	*	*clefC1	*	*clefG2	*clefG2
*	*	*	*	*	*	*	*	*	*ITrd6c10	*ITrd6c10
*k[f#]	*	*	*k[f#]	*k[f#]	*k[f#]	*	*k[f#]	*	*k[f#]	*k[f#]
*D:	*	*	*D:	*D:	*D:	*	*D:	*	*D:	*D:
*M2/2	*	*	*M2/2	*M2/2	*M2/2	*	*M2/2	*	*M2/2	*M2/2
*met(c|)	*	*	*met(c|)	*met(c|)	*met(c|)	*	*met(c|)	*	*met(c|)	*met(c|)
*2\right	*	*	*2\right	*2\right	*2\right	*	*2\right	*	*2\right	*2\right
=1	=1	=1	=1	=1	=1	=1	=1	=1	=1	=1
!LO:TX:a:B:t=Andante:rj	!	!	!	!	!LO:TX:a:t=23.	!	!LO:TX:a:t=21.	!	!	!LO:TX:a:t=Gloria et Sicut\nTacet
!LO:TX:a:t=Solo	!	!	!LO:TX:a:B:t=Andante:rj	!LO:TX:a:B:t=Andante	!LO:TX:a:B:t=Andante:rj	!	!LO:TX:a:B:t=Andante:rj	!	!	!LO:TX:a:B:t=Andante
8r	.	.	2B/	2g/	00r	.	00r	.	1ryy	1ryy
8G|\L	.	.	.	.	.	.	.	.	.	.
8F#|\	.	.	.	.	.	.	.	.	.	.
8G|\J	.	.	.	.	.	.	.	.	.	.
!LO:TX:a:t=uniſs	!	!	!	!	!	!	!	!	!	!
4GG|/	.	.	(8c/L	(8a/L	.	.	.	.	.	.
.	.	.	8B/J)	8g/J)	.	.	.	.	.	.
4GG|/	.	.	(8e/L	(8cc\L	.	.	.	.	.	.
.	.	.	8d/J)	8b\J)	.	.	.	.	.	.
=2	=2	=2	=2	=2	=2	=2	=2	=2	=2	=2
4GG|/	.	.	(8e/L	(8cc\L	.	.	.	.	1ryy	1ryy
.	.	.	8d/J)	8b\J)	.	.	.	.	.	.
4GG|/	.	.	(8d/L	(8b\L	.	.	.	.	.	.
.	.	.	8c/J)	8a\J)	.	.	.	.	.	.
4GG|/	.	.	(8c/L	(8b\L	.	.	.	.	.	.
.	.	.	8B/J)	8a\J)	.	.	.	.	.	.
4GG|/	.	.	(8B/L	(8g\L	.	.	.	.	.	.
.	.	.	8A/J)	8f#\J)	.	.	.	.	.	.
=3	=3	=3	=3	=3	=3	=3	=3	=3	=3	=3
8r	.	.	2g/	2G/ 2d 2b	.	.	.	.	1ryy	1ryy
8G|\L	.	.	.	.	.	.	.	.	.	.
8F#|\	.	.	.	.	.	.	.	.	.	.
8G|\J	.	.	.	.	.	.	.	.	.	.
4GG|/	.	.	(8a/L	(8cc\L	.	.	.	.	.	.
.	.	.	8g/J)	8b\J)	.	.	.	.	.	.
4GG|/	.	.	(8cc\L	(8ee\L	.	.	.	.	.	.
.	.	.	8b\J)	8dd\J)	.	.	.	.	.	.
=4	=4	=4	=4	=4	=4	=4	=4	=4	=4	=4
4GG|/	.	.	(8cc\L	(8ee\L	.	.	.	.	1ryy	1ryy
.	.	.	8b\)	8dd\J)	.	.	.	.	.	.
4GG|/	.	.	(8b\	(8dd\L	.	.	.	.	.	.
.	.	.	8a\J)	8cc\J)	.	.	.	.	.	.
4GG|/	.	.	(8a/L	(8cc\L	.	.	.	.	.	.
.	.	.	8g/J)	8b\J)	.	.	.	.	.	.
4GG|/	.	.	(8g/L	(8b\L	.	.	.	.	.	.
.	.	.	8f#/J)	8a\J)	.	.	.	.	.	.
=5	=5	=5	=5	=5	=5	=5	=5	=5	=5	=5
.	.	.	16qqG/LL	.	.	.	.	.	.	.
.	.	.	16qqd/JJ	.	.	.	.	.	.	.
8r	.	.	2b\	2dd\	00r	.	00r	.	1ryy	1ryy
8G|\L	.	.	.	.	.	.	.	.	.	.
8F#|\	.	.	.	.	.	.	.	.	.	.
8G|\J	.	.	.	.	.	.	.	.	.	.
4GG|/	.	.	(8cc\L	(8ee\L	.	.	.	.	.	.
.	.	.	8b\)	8dd\)	.	.	.	.	.	.
4GG|/	.	.	(8b\	(8gg\	.	.	.	.	.	.
.	.	.	8a\J)	8ff#\J)	.	.	.	.	.	.
=6	=6	=6	=6	=6	=6	=6	=6	=6	=6	=6
!	!	!	!LO:LB:g=original	!LO:LB:g=original	!	!	!	!	!	!
4GG|/	.	.	(8cc\L	(8aa\L	.	.	.	.	1ryy	1ryy
.	.	.	8b\)	8gg\)	.	.	.	.	.	.
4GG|/	.	.	(8gg\	(8bb\	.	.	.	.	.	.
.	.	.	8ff#\J)	8aa\J)	.	.	.	.	.	.
4GG|/	.	.	(8aa\L	(8ccc\L	.	.	.	.	.	.
.	.	.	8gg\)	8bb\)	.	.	.	.	.	.
4GG|/	.	.	(8bb\	(8ddd\	.	.	.	.	.	.
.	.	.	8aa\J)	8ccc\J)	.	.	.	.	.	.
=7	=7	=7	=7	=7	=7	=7	=7	=7	=7	=7
!LO:LB:g=original	!	!	!LO:TUP:a:problem:klamra łukowa	!LO:TUP:a:problem:klamra łukowa	!	!	!	!	!	!
2.G\	.	.	12gg\L	12bb\L	.	.	.	.	1ryy	1ryy
.	.	.	12aa\	12ccc\	.	.	.	.	.	.
.	.	.	12bb\J	12ddd\J	.	.	.	.	.	.
.	.	.	2bb\	2ddd\	.	.	.	.	.	.
4G\	.	.	8aa\L	8ccc\L	.	.	.	.	.	.
.	.	.	8gg\J	8bb\J	.	.	.	.	.	.
=8	=8	=8	=8	=8	=8	=8	=8	=8	=8	=8
4D\	x 6 4	.	4bb\	4ddd\	.	.	.	.	1ryy	1ryy
4d|\	.	.	(16aa\LL	16ccc\LL	.	.	.	.	.	.
.	.	.	16gg\)	16bb\	.	.	.	.	.	.
.	.	.	(16ff#\	16aa\	.	.	.	.	.	.
.	.	.	16gg\JJ)	16bb\JJ	.	.	.	.	.	.
4D\	x 5 3	.	4ff#\	4aa\	.	.	.	.	.	.
4r	.	.	4d/	4d/	.	.	.	.	.	.
=9	=9	=9	=9	=9	=9	=9	=9	=9	=9	=9
!LO:TX:a:t=1	!	!	!	!	!	!	!	!	!	!
1r	.	.	8c#X/L	(8e/L	00r	.	00r	.	1ryy	1ryy
.	.	.	8d/	8d/)	.	.	.	.	.	.
.	.	.	8e/	(8g/	.	.	.	.	.	.
.	.	.	8d/J	8f#/J)	.	.	.	.	.	.
*	*	*	*rep	*	*	*	*	*	*	*
.	.	.	8c#/L	(8e/L	.	.	.	.	.	.
.	.	.	8d/	8d/J)	.	.	.	.	.	.
.	.	.	8e/	(8cc\L	.	.	.	.	.	.
.	.	.	8d/J	8b\J)	.	.	.	.	.	.
*	*	*	*Xrep	*	*	*	*	*	*	*
=10	=10	=10	=10	=10	=10	=10	=10	=10	=10	=10
4r	.	.	2g/	2b/	.	.	.	.	1ryy	1ryy
8.D/L	x 6 4	.	.	.	.	.	.	.	.	.
16D/Jk	.	.	.	.	.	.	.	.	.	.
2D/	x 5 3	.	4f#/	4a/	.	.	.	.	.	.
.	.	.	4d/	4d/	.	.	.	.	.	.
=11	=11	=11	=11	=11	=11	=11	=11	=11	=11	=11
!LO:TX:a:t=1	!	!	!	!	!	!	!	!	!	!
1r	.	.	(8c#X/L	(8e/L	.	.	.	.	1ryy	1ryy
.	.	.	8d/)	8d/)	.	.	.	.	.	.
.	.	.	(8e/	(8g/	.	.	.	.	.	.
.	.	.	8d/J)	8f#/J)	.	.	.	.	.	.
!	!	!	!LO:TX:t=P:problem:mixed beam	!	!	!	!	!	!	!
.	.	.	(8c#X/L	(8e/L	.	.	.	.	.	.
.	.	.	8d/)	8d/J)	.	.	.	.	.	.
.	.	.	(8ccn\	(8ee\L	.	.	.	.	.	.
.	.	.	8b\J)	8dd\J)	.	.	.	.	.	.
=12	=12	=12	=12	=12	=12	=12	=12	=12	=12	=12
!	!	!	!	!LO:LB:g=original	!	!	!	!	!	!
4r	.	.	2b/	2dd\	.	.	.	.	1ryy	1ryy
8.D/L	x 6 4	.	.	.	.	.	.	.	.	.
16D/Jk	.	.	.	.	.	.	.	.	.	.
4D|/	x 7 3	.	4a/	4cc\	.	.	.	.	.	.
4D|/	.	.	4f#/	4d/	.	.	.	.	.	.
=13	=13	=13	=13	=13	=13	=13	=13	=13	=13	=13
!	!	!	!LO:LB:g=original	!	!	!	!	!	!	!
4G\	.	.	(8g/L	8.b\L	00r	.	00r	.	1ryy	1ryy
.	.	.	8d/)	.	.	.	.	.	.	.
.	.	.	.	16gg\Jk	.	.	.	.	.	.
.	.	.	.	8qqaa/	.	.	.	.	.	.
4B\	x x 6	.	(8g/	8.aa\L	.	.	.	.	.	.
.	.	.	8d/J)	.	.	.	.	.	.	.
.	.	.	.	16cc\Jk	.	.	.	.	.	.
.	.	.	.	8qqdd/	.	.	.	.	.	.
4F#\	x 6 5	.	(8a/L	4cc\	.	.	.	.	.	.
.	.	.	8d/)	.	.	.	.	.	.	.
4D\	x x 7	.	(8f#/	4r	.	.	.	.	.	.
.	.	.	8d/J)	.	.	.	.	.	.	.
=14	=14	=14	=14	=14	=14	=14	=14	=14	=14	=14
4GG/	.	.	(8g/L	(8b\L	.	.	.	.	1ryy	1ryy
.	.	.	8d/)	8gg\J)	.	.	.	.	.	.
4B\	x x 6	.	(8g/	16r	.	.	.	.	.	.
.	.	.	.	16gg\KL	.	.	.	.	.	.
.	.	.	8d/J)	8gg\J	.	.	.	.	.	.
4F#\	x 6 5	.	(8a/L	8aa\L	.	.	.	.	.	.
.	.	.	8d/)	8cc\J	.	.	.	.	.	.
4D\	x x 7	.	(8f#/	16r	.	.	.	.	.	.
.	.	.	.	16cc\KL	.	.	.	.	.	.
.	.	.	8d/J)	8cc\J	.	.	.	.	.	.
=15	=15	=15	=15	=15	=15	=15	=15	=15	=15	=15
4G\	.	.	4d/	8.b\L	.	.	.	.	1ryy	1ryy
.	.	.	.	16dd\Jk	.	.	.	.	.	.
4G\	.	.	16e/LL	16cc\LL	.	.	.	.	.	.
.	.	.	16d/	16b\	.	.	.	.	.	.
.	.	.	16c/	16a\	.	.	.	.	.	.
.	.	.	16B/JJ	16g\JJ	.	.	.	.	.	.
4d\	x x 7	.	4c/	(8.a\L	.	.	.	.	.	.
.	.	.	.	16cc\Jk)	.	.	.	.	.	.
4D/	.	.	16d/LL	16b/LL	.	.	.	.	.	.
.	.	.	16c/	(16a/	.	.	.	.	.	.
.	.	.	16B/	16g/	.	.	.	.	.	.
.	.	.	16A/JJ	16f#/JJ)	.	.	.	.	.	.
=16	=16	=16	=16	=16	=16	=16	=16	=16	=16	=16
!	!	!	!	!LO:TUP:b:problem:klamra łukowa	!	!	!	!	!	!
2E\	x x 5	.	4r	12g/L	.	.	.	.	1ryy	1ryy
.	x x 6	.	.	12a/	.	.	.	.	.	.
.	.	.	.	12b/J	.	.	.	.	.	.
!	!	!	!	!LO:TUP:a:problem:klamra łukowa	!	!	!	!	!	!
.	.	.	8.g/L	12cc\L	.	.	.	.	.	.
.	.	.	.	12dd\	.	.	.	.	.	.
.	.	.	.	12ee\J	.	.	.	.	.	.
.	.	.	16cc/Jk	.	.	.	.	.	.	.
2F#\	x 7 5	.	4cc\	4ee\	.	.	.	.	.	.
.	x 6 4	.	8.b\L	(8.dd\L	.	.	.	.	.	.
.	x 5 3	.	16a\Jk	16cc\Jk)	.	.	.	.	.	.
=17	=17	=17	=17	=17	=17	=17	=17	=17	=17	=17
!LO:LB:g=original	!	!	!	!LO:LB:g=original	!	!	!	!	!	!
4G\	x x 3	.	4d/	(8.b\L	00r	.	00r	.	1ryy	1ryy
.	.	.	.	16dd\Jk)	.	.	.	.	.	.
4GG/	.	.	(16e/LL	(16cc\LL	.	.	.	.	.	.
.	.	.	16d/)	16b\	.	.	.	.	.	.
.	.	.	(16c/	16a\	.	.	.	.	.	.
.	.	.	16B/JJ)	16g\JJ)	.	.	.	.	.	.
4D/	x x 7	.	4c/	8.a\L	.	.	.	.	.	.
.	.	.	.	16cc\Jk	.	.	.	.	.	.
4D/	.	.	(16d/LL	16b/LL	.	.	.	.	.	.
.	.	.	16c/)	(16a/	.	.	.	.	.	.
.	.	.	(16B/	16g/	.	.	.	.	.	.
.	.	.	16A/JJ)	16f#/JJ)	.	.	.	.	.	.
=18	=18	=18	=18	=18	=18	=18	=18	=18	=18	=18
!	!	!	!	!LO:TUP:b:problem:klamra łukowa	!	!	!	!	!	!
2E\	x x 5	.	4r	12g/L	.	.	.	.	1ryy	1ryy
.	x x 6	.	.	12a/	.	.	.	.	.	.
.	.	.	.	12b/J	.	.	.	.	.	.
!	!	!	!	!LO:TUP:a:problem:klamra łukowa	!	!	!	!	!	!
.	.	.	8.g/L	12cc\L	.	.	.	.	.	.
.	.	.	.	12dd\	.	.	.	.	.	.
.	.	.	.	12ee\J	.	.	.	.	.	.
.	.	.	16cc/Jk	.	.	.	.	.	.	.
2F#\	x 7 5	.	4cc\	4ee\	.	.	.	.	.	.
.	x 6 4	.	8cc\L	8.dd\L	.	.	.	.	.	.
.	x 5 3	.	16b\L	.	.	.	.	.	.	.
.	.	.	16a\JJ	16cc\Jk	.	.	.	.	.	.
=19	=19	=19	=19	=19	=19	=19	=19	=19	=19	=19
!	!	!	!LO:LB:g=original	!	!	!	!	!	!	!
4G\	x x 3	.	4d/	(8.b\L	.	.	.	.	1ryy	1ryy
.	.	.	.	16dd\Jk)	.	.	.	.	.	.
4GG/	.	.	16e/LL	16cc\LL	.	.	.	.	.	.
.	.	.	16d/	(16b\	.	.	.	.	.	.
.	.	.	16c/	16a\	.	.	.	.	.	.
.	.	.	16B/JJ	16g\JJ)	.	.	.	.	.	.
4D/	.	.	4c/	8.a\L	.	.	.	.	.	.
.	.	.	.	16cc\Jk	.	.	.	.	.	.
4D/	x x 7	.	16d/LL	16b/LL	.	.	.	.	.	.
.	.	.	16c/	(16a/	.	.	.	.	.	.
.	.	.	16B/	16g/	.	.	.	.	.	.
.	.	.	16A/JJ	16f#/JJ)	.	.	.	.	.	.
=20	=20	=20	=20	=20	=20	=20	=20	=20	=20	=20
4GG|/	x x 3	.	(8B/L	4g/	.	.	.	.	1ryy	1ryy
.	.	.	8d/J)	.	.	.	.	.	.	.
4GG|/	x 6 4	.	(8c/L	4e/	.	.	.	.	.	.
.	.	.	8e/J)	.	.	.	.	.	.	.
4GG|/	x 5 3	.	(8B/L	4d/	.	.	.	.	.	.
.	.	.	8d/J)	.	.	.	.	.	.	.
4GG|/	7 4 2	.	(8A/L	4cc\	.	.	.	.	.	.
.	.	.	8d/J)	.	.	.	.	.	.	.
=21	=21	=21	=21	=21	=21	=21	=21	=21	=21	=21
1GG	7 4 2	.	2A/ 2d	2cc\	0r	.	1r	.	1ryy	1ryy
.	8 5 3	.	2G/ 2d	2b\	.	.	.	.	.	.
=22	=22	=22	=22	=22	=22	=22	=22	=22	=22	=22
8r	.	.	2B/	2g/	.	.	2g/	Glo-	1ryy	1ryy
8G|\L	.	.	.	.	.	.	.	.	.	.
8F#|\	.	.	.	.	.	.	.	.	.	.
8G|\J	.	.	.	.	.	.	.	.	.	.
4GG/	.	.	(8c/L	(8a/L	.	.	(8a\L	-ri-	.	.
.	.	.	8B/J)	8g/J)	.	.	8g\J)	.	.	.
!LO:TX:a:t=uniſs	!	!	!	!LO:LB:g=original	!	!	!	!	!	!
4GG/	.	.	(8e/L	(8cc\L	.	.	(8cc\L	-a	.	.
.	.	.	8d/J)	8b\J)	.	.	8b\J)	.	.	.
=23	=23	=23	=23	=23	=23	=23	=23	=23	=23	=23
4GG|/	.	.	(8e/L	(8cc\L	1r	.	(8cc\L	Pa-	1ryy	1ryy
.	.	.	8d/)	8b\	.	.	8b\J)	.	.	.
4GG|/	.	.	(8d/	8b\	.	.	(8b\L	.	.	.
.	.	.	8c/J)	8a\J)	.	.	8a\J)	.	.	.
4GG|/	.	.	(8c/L	(8a/L	.	.	(8a\L	.	.	.
.	.	.	8B/)	8g/	.	.	8g\J)	.	.	.
4GG|/	.	.	(8B/	8g/	.	.	(8g/L	-tri	.	.
.	.	.	8A/J)	8f#/J)	.	.	8f#/J)	.	.	.
=24	=24	=24	=24	=24	=24	=24	=24	=24	=24	=24
!	!	!	!	!	!LO:TX:a:t=Solo	!	!	!	!	!
8r	.	.	2g/	2G/ 2d 2b	2G\	Glo-	2b\	glo-	1ryy	1ryy
8G|\L	.	.	.	.	.	.	.	.	.	.
8F#|\	.	.	.	.	.	.	.	.	.	.
8G|\J	.	.	.	.	.	.	.	.	.	.
4GG/	.	.	(8a/L	(8cc\L	8A\L	-ri-	(8cc\L	-ri-	.	.
.	.	.	8g/J)	8b\)	8G\J	.	8b\J)	.	.	.
4GG/	.	.	(8cc\L	(8ee\	(8c\L	-a	(8ee\L	-a	.	.
.	.	.	8b\J)	8dd\J)	8B\J)	.	8dd\J)	.	.	.
=25	=25	=25	=25	=25	=25	=25	=25	=25	=25	=25
!	!	!	!LO:LB:g=original	!	!	!	!LO:LB:g=original	!	!	!
4GG/	.	.	(8cc\L	(8ee\L	(8c\L	Pa-	(8ee\L	Pa-	1ryy	1ryy
.	.	.	8b\)	8dd\)	8B\J)	.	8dd\J)	.	.	.
4GG/	.	.	(8b\	(8dd\	(8B\L	.	(8dd\L	.	.	.
.	.	.	8a\J)	8cc\J)	8A\J)	.	8cc\J)	.	.	.
4GG/	.	.	(8a/L	(8cc\L	(8A\L	.	(8cc\L	.	.	.
.	.	.	8g/)	8b\)	8G\J)	.	8b\J)	.	.	.
4GG/	.	.	(8g/	(8b\	(8G\L	-tri	(8b\L	-tri	.	.
.	.	.	8f#/J)	8a\J)	8F#\J)	.	8a\J)	.	.	.
=26	=26	=26	=26	=26	=26	=26	=26	=26	=26	=26
!LO:LB:g=original	!	!	!	!	!	!	!	!	!	!
.	.	.	32qqG/LLL	.	.	.	.	.	.	.
.	.	.	32qqd/JJJ	.	.	.	.	.	.	.
8r	.	.	2b\	2dd\	2B\	Glo-	2dd\	Glo-	1ryy	1ryy
8G|\L	.	.	.	.	.	.	.	.	.	.
8F#|\	.	.	.	.	.	.	.	.	.	.
8G|\J	.	.	.	.	.	.	.	.	.	.
4GG/	.	.	(8cc\L	(8ee\L	(8c\L	-ri-	(8ee\L	-ri-	.	.
.	.	.	8b\)	8dd\)	8B\J)	.	8dd\J)	.	.	.
4GG/	.	.	(8b\	(8gg\	(8B\L	-a	(8gg\L	-a	.	.
.	.	.	8a\J)	8ff#\J)	8A\J)	.	8ff#\J)	.	.	.
=27	=27	=27	=27	=27	=27	=27	=27	=27	=27	=27
!	!	!	!	!	!LO:LB:g=original	!	!	!	!	!
4GG/	.	.	(8cc\L	(8aa\L	(8c\L	et	8aa\L	et	1ryy	1ryy
.	.	.	8b\)	8gg\)	8B\J)	.	8gg\J	.	.	.
4GG/	.	.	(8gg\	(8bb\	(8G\L	spi-	8b\L	Spi-	.	.
.	.	.	8ff#\J)	8aa\J)	8F#\J)	.	8a\J	.	.	.
4GG/	.	.	(8aa\L	8ccc\L	(8A\L	-ri-	8cc\L	-ri-	.	.
.	.	.	8gg\)	8bb\	8G\J)	.	8b\J	.	.	.
4GG/	.	.	8bb\	8ddd\	8B\	-tu-	8dd\L	-tu-	.	.
.	.	.	8aa\J	8ccc\J	8A\	-i	8cc\J	-i	.	.
=28	=28	=28	=28	=28	=28	=28	=28	=28	=28	=28
*	*	*	*	*Xtuplet	*	*	*	*	*	*
!	!	!	!LO:TUP:a:problem:klamra łukowa	!	!LO:TUP:a:problem:klamra łukowa	!	!LO:TUP:a:problem:klamra łukowa	!	!	!
2.G\	.	.	12gg\L	12bb\L	12G\L	San-	12b\L	San-	1ryy	1ryy
.	.	.	12aa\	12ccc\	12A\	.	12cc\	.	.	.
.	.	.	12bb\J	12ddd\J	12B\J	.	12dd\J	.	.	.
.	.	.	2bb\	2ddd\	2B\	.	2dd\	.	.	.
4GG/	.	.	(8aa\L	8ccc\L	(8A\L	.	(8cc\L	.	.	.
.	.	.	8gg\J)	8bb\J	8G\J)	.	8b\J)	.	.	.
=29	=29	=29	=29	=29	=29	=29	=29	=29	=29	=29
!	!	!	!	!LO:LB:g=original	!	!	!	!	!	!
4DD/	x 6 4	.	4bb\	4ddd\	4B\	.	4dd\	.	1ryy	1ryy
4D|\	.	.	16aa\LL	16ccc\LL	16A\LL	.	16cc\LL	.	.	.
.	.	.	16gg\	16bb\	16G\	.	16b\	.	.	.
.	.	.	16ff#\	16aa\	16F#\	.	16a\	.	.	.
.	.	.	16gg\JJ	16bb\JJ	16G\JJ	.	16b\JJ	.	.	.
4DD/	x 5 3	.	4ff#\	4aa\	4F#\	-cto	4a\	-cto	.	.
4D\	x 6 5	.	4r	4aa\	4A\	glo-	4r	.	.	.
=30	=30	=30	=30	=30	=30	=30	=30	=30	=30	=30
!	!	!	!	!	!	!	!LO:LB:g=original	!	!	!
!	!	!	!	!	!	!	!LO:TX:a:t=1	!	!	!
4G|\	.	.	2r	8bb\	4B\	.	1r	.	1ryy	1ryy
.	.	.	.	4bb\	.	.	.	.	.	.
4G|\	.	.	.	.	(8.d\L	.	.	.	.	.
.	.	.	.	4bb\	.	.	.	.	.	.
.	.	.	.	.	16c\Jk)	.	.	.	.	.
4G|\	.	.	4r	.	(8.B\L	.	.	.	.	.
.	.	.	.	4bb\	.	.	.	.	.	.
.	.	.	.	.	16A\Jk)	.	.	.	.	.
4G|\	.	.	4dd\	.	(8.G\L	.	.	.	.	.
.	.	.	.	8bb\	.	.	.	.	.	.
.	.	.	.	.	16F#\Jk)	-ri-	.	.	.	.
=31	=31	=31	=31	=31	=31	=31	=31	=31	=31	=31
!	!	!	!LO:LB:g=original	!	!LO:LB:g=original	!	!	!	!	!
.	.	.	.	.	8qqF#/	.	.	.	.	.
4C#X|/	x x 7	.	8ee\	8bb\	2E\	-a	4r	.	1ryy	1ryy
.	.	.	4ee\	4bb\	.	.	.	.	.	.
4C#|/	.	.	.	.	.	.	(8.gg\L	Glo-	.	.
.	.	.	4ee\	4bb\	.	.	.	.	.	.
.	.	.	.	.	.	.	16ff#\Jk)	.	.	.
4C#|/	.	.	.	.	2r	.	(8.ee\L	-ri-	.	.
.	.	.	4ee\	4bb\	.	.	.	.	.	.
.	.	.	.	.	.	.	16dd\Jk)	.	.	.
4C#|/	.	.	.	.	.	.	(8.cc#X\L	.	.	.
.	.	.	8ee\	8bb\	.	.	.	.	.	.
.	.	.	.	.	.	.	16b\Jk)	.	.	.
=32	=32	=32	=32	=32	=32	=32	=32	=32	=32	=32
4F#\	x x 7	.	8ee\	8aa\	4r	.	2a\	-a	1ryy	1ryy
.	.	.	4ee\	4aa\	.	.	.	.	.	.
4F#\	.	.	.	.	(8.c\L	Pa-	.	.	.	.
.	.	.	4ee\	4aa\	.	.	.	.	.	.
.	.	.	.	.	16B\Jk)	.	.	.	.	.
4F#\	.	.	.	.	(8.A\L	.	2r	.	.	.
.	.	.	4ee\	4aa\	.	.	.	.	.	.
.	.	.	.	.	16G\Jk)	.	.	.	.	.
4F#\	.	.	.	.	(8.F#\L	.	.	.	.	.
.	.	.	8ee\	8aa\	.	.	.	.	.	.
.	.	.	.	.	16E\Jk)	.	.	.	.	.
=33	=33	=33	=33	=33	=33	=33	=33	=33	=33	=33
.	.	.	.	.	8qqE/	.	.	.	.	.
4BB/	x x 7	.	8dd\	8aa\	2D\	-tri	4r	.	1ryy	1ryy
.	.	.	4dd\	4aa\	.	.	.	.	.	.
4BB/	.	.	.	.	.	.	(8.ff#\L	Pa-	.	.
.	.	.	4dd\	4aa\	.	.	.	.	.	.
.	.	.	.	.	.	.	16ee\Jk)	.	.	.
4BB/	.	.	.	.	2r	.	(8.dd\L	.	.	.
.	.	.	4dd\	4aa\	.	.	.	.	.	.
.	.	.	.	.	.	.	16cc#X\Jk)	.	.	.
4BB/	.	.	.	.	.	.	(8.b\L	.	.	.
.	.	.	8dd\	8aa\	.	.	.	.	.	.
.	.	.	.	.	.	.	16a\Jk)	.	.	.
=34	=34	=34	=34	=34	=34	=34	=34	=34	=34	=34
!LO:LB:g=original	!	!	!	!	!	!	!	!	!	!
4E\	x x 7	.	8dd\	8gg\	4r	.	2f#/	-tri	1ryy	1ryy
.	.	.	4dd\	4gg\	.	.	.	.	.	.
4E\	.	.	.	.	(8.B\L	et	.	.	.	.
.	.	.	4dd\	4gg\	.	.	.	.	.	.
.	.	.	.	.	16A\Jk)	.	.	.	.	.
4E\	.	.	.	.	(8.G\L	fi-	2r	.	.	.
.	.	.	4dd\	4gg\	.	.	.	.	.	.
.	.	.	.	.	16F#\Jk)	.	.	.	.	.
4E\	.	.	.	.	(8.E\L	-li-	.	.	.	.
.	.	.	8dd\	8gg\	.	.	.	.	.	.
.	.	.	.	.	16D\Jk)	.	.	.	.	.
=35	=35	=35	=35	=35	=35	=35	=35	=35	=35	=35
.	.	.	.	.	8qqD/	.	.	.	.	.
4AA/	x 7 3#r	.	8cc#X\	8gg\	2C#X/	-o	4r	.	1ryy	1ryy
.	.	.	4cc#\	4gg\	.	.	.	.	.	.
4AA/	.	.	.	.	.	.	8.ee\L	et	.	.
.	.	.	4cc#\	4gg\	.	.	.	.	.	.
.	.	.	.	.	.	.	16dd\Jk	.	.	.
4AA/	.	.	.	.	2r	.	8.cc#X\L	fi-	.	.
.	.	.	4cc#\	4gg\	.	.	.	.	.	.
.	.	.	.	.	.	.	16b\Jk	.	.	.
4AA/	.	.	.	.	.	.	8.a\	-li-	.	.
.	.	.	8cc#\	8gg\	.	.	.	.	.	.
.	.	.	.	.	.	.	16g/	-o	.	.
=36	=36	=36	=36	=36	=36	=36	=36	=36	=36	=36
!	!	!	!	!LO:LB:g=original	!	!	!LO:LB:g=original	!	!	!
4DD/	.	.	4dd\	4ff#\	4.D/	et	4.f#X/	et	1ryy	1ryy
4DD/	.	.	4r	4r	.	.	.	.	.	.
.	.	.	.	.	16C#X/LL	spi-	16e/LL	.	.	.
.	.	.	.	.	16D/JJ	.	16f#/JJ	.	.	.
!	!	!	!	!	!LO:LB:g=original	!	!	!	!	!
4DD/	x 4 2	.	4ee\	4gg\	4.E\	-ri-	4.g/	ſpi-	.	.
4DD/	.	.	4r	4r	.	.	.	.	.	.
.	.	.	.	.	16D\LL	.	16f#/LL	.	.	.
.	.	.	.	.	16E\JJ	.	16g/JJ	.	.	.
=37	=37	=37	=37	=37	=37	=37	=37	=37	=37	=37
4DD/	x 5 3	.	2ff#\	2aa\	4.F#\	-tu-	4.a\	-ri-	1ryy	1ryy
4DD/	.	.	.	.	.	.	.	.	.	.
.	.	.	.	.	(16E\LL	.	(16g\LL	.	.	.
.	.	.	.	.	16F#\JJ)	.	16a\JJ)	.	.	.
!	!	!	!	!	!LO:TUP:a:problem:klamra łukowa	!	!LO:TUP:a:problem:klamra łukowa	!	!	!
4DD/	x 6 4	.	4gg\	4bb\	12G\L	.	12b\L	-tu-	.	.
.	.	.	.	.	12A\	.	12cc#X\	.	.	.
.	.	.	.	.	12B\J	.	12dd\J	.	.	.
!	!	!	!	!	!LO:TUP:a:problem:klamra łukowa	!	!LO:TUP:a:problem:klamra łukowa	!	!	!
4DD/	x 7#r 2	.	4e/	4cc#X\	12E\L	-i	12cc#X\L	-i	.	.
.	.	.	.	.	12F#\	.	12dd\	.	.	.
.	.	.	.	.	12G\J	.	12ee\J	.	.	.
=38	=38	=38	=38	=38	=38	=38	=38	=38	=38	=38
!	!	!	!LO:LB:g=original	!	!	!	!	!	!	!
!	!	!	!LO:TUP:b:problem:klamra łukowa	!	!LO:TUP:a:problem:klamra łukowa	!	!LO:TUP:a:problem:klamra łukowa	!	!	!
4D/	x 8 3	.	12f#/L	4dd\	12F#\L	san-	12dd\L	ſan-	1ryy	1ryy
.	.	.	12g/	.	12G\	.	12ee\	.	.	.
.	.	.	12a/J	.	12A\J	.	12ff#\J	.	.	.
!	!	!	!LO:TUP:b:problem:klamra łukowa	!	!LO:TUP:a:problem:klamra łukowa	!	!LO:TUP:a:problem:klamra łukowa	!	!	!
4GG/	x 6 5	.	12b/L	2dd\	12B\L	.	12gg\L	.	.	.
.	.	.	12a/	.	12A\	.	12ff#\	.	.	.
.	.	.	12g/J	.	12G\J	.	12ee\J	.	.	.
4AA/	x 6 4	.	4f#/	.	4F#\	.	4dd\	.	.	.
4AA/	x 7 3#r	.	4e/	4cc#X\	4E\	.	4cc#X\	.	.	.
=39	=39	=39	=39	=39	=39	=39	=39	=39	=39	=39
!	!	!	!	!LO:SIC:v:s=8qqcc#/	!	!	!LO:SIC:v:s=8qqcc#/	!	!	!
.	.	.	8qqe/	8qqcc/	.	.	8qqcc/	.	.	.
8D|\L	.	.	2f#/	2dd\	2F#\	-cto	2dd\	-cto	1ryy	1ryy
(8A\	.	.	.	.	.	.	.	.	.	.
8F#\	.	.	.	.	.	.	.	.	.	.
8D\J)	.	.	.	.	.	.	.	.	.	.
4r	.	.	4r	4r	4.G\	Glo-	4.b\	glo-	.	.
(4C#X/	x 7 5	.	4g/	4ee\	.	.	.	.	.	.
.	.	.	.	.	8G\	-ri-	8b\	-ri-	.	.
=40	=40	=40	=40	=40	=40	=40	=40	=40	=40	=40
.	.	.	.	.	8qqG/	.	.	.	.	.
4D/)	x 5 3	.	2f#/	4ee\	2F#\	-a	2a\	-a	1ryy	1ryy
4DD/	.	.	.	4dd\	.	.	.	.	.	.
4r	.	.	4.gg\	4.bb\	4.G\	et	4.b\	et	.	.
(4C#X/	x 7 5	.	.	.	.	.	.	.	.	.
.	.	.	(16aa\LL	(16ccc#X\LL	16A\LL	spi-	16cc#X\LL	spi-	.	.
.	.	.	16bb\JJ)	16ddd\JJ)	16B\JJ	.	16dd\JJ	.	.	.
=41	=41	=41	=41	=41	=41	=41	=41	=41	=41	=41
*	*	*	*	*tuplet	*	*	*	*	*	*
!	!	!	!	!	!LO:LB:g=original	!	!LO:LB:g=original	!	!	!
4D/)	x 5 3	.	4ff#\	4aa\	8F#\	-ri-	8a\	-ri-	1ryy	1ryy
.	.	.	.	.	(16E\LL	-tu-	(16g\LL	-tu-	.	.
.	.	.	.	.	16F#\JJ)	.	16a\JJ)	.	.	.
!	!	!	!	!LO:TUP:a:problem:klamra łukowa	!	!	!	!	!	!
4GG/	x 6 5	.	2dd\	12bb\L	8G\	-i	8b\	-i	.	.
.	.	.	.	12aa\	.	.	.	.	.	.
.	.	.	.	.	(16F#\LL	San-	16a\LL	San-	.	.
.	.	.	.	12gg\J	.	.	.	.	.	.
.	.	.	.	.	16E\JJ)	.	16g\JJ	.	.	.
4AA/	x 6 4	.	.	4ff#\	4D/	.	4f#/	.	.	.
4AA/	x 7 3#r	.	4cc#X\	4ee\	4C#X/	.	4e/	.	.	.
=42	=42	=42	=42	=42	=42	=42	=42	=42	=42	=42
!LO:LB:g=original	!	!	!	!	!	!	!	!	!	!
8D|\L	.	.	8d|/L	8dd|\L	2D/	-cto	2d/	-cto	1ryy	1ryy
8E|\	.	.	8e|/	8ee|\	.	.	.	.	.	.
8F#|\	.	.	8f#|/	8ff#|\	.	.	.	.	.	.
8G|\J	.	.	8g|/J	8gg|\J	.	.	.	.	.	.
8A|\L	.	.	8a|\L	8aa|\L	2r	.	2r	.	.	.
8B|\	.	.	8b|\	8bb|\	.	.	.	.	.	.
!	!	!	!	!LO:SIC:v:s=8aa#	!	!	!	!	!	!
8c#X|\	.	.	8cc#X|\	8ccc|\	.	.	.	.	.	.
8d|\J	.	.	8dd|\J	8ddd|\J	.	.	.	.	.	.
=43	=43	=43	=43	=43	=43	=43	=43	=43	=43	=43
*	*	*	*^	*	*	*	*	*	*	*
!	!	!	!	!	!LO:LB:g=original	!LO:TX:a:t=9	!	!LO:TX:a:t=9	!	!	!
(4C#X/	x 6\ 3	.	8a/	8g\	(32ee\LLL	00r	.	00r	.	1ryy	1ryy
.	.	.	.	.	32dd\JJ)	.	.	.	.	.	.
!	!	!	!	!	!LO:N:vis=8	!	!	!	!	!	!
.	.	.	.	.	8.cc#X\J	.	.	.	.	.	.
.	.	.	4a/	4g\	.	.	.	.	.	.	.
4E\)	.	.	.	.	(32cc#\LLL	.	.	.	.	.	.
.	.	.	.	.	32b\JJ)	.	.	.	.	.	.
!	!	!	!	!	!LO:N:vis=8	!	!	!	!	!	!
.	.	.	.	.	8.a\J	.	.	.	.	.	.
.	.	.	4a/	4g\	.	.	.	.	.	.	.
(4AA/	x x 3#r	.	.	.	8r	.	.	.	.	.	.
.	.	.	4a/	4g\	(8cc#\L	.	.	.	.	.	.
4C#X/)	.	.	.	.	8ee\)	.	.	.	.	.	.
.	.	.	8a/	8g\	8gg|\J	.	.	.	.	.	.
*	*	*	*v	*v	*	*	*	*	*	*	*
=44	=44	=44	=44	=44	=44	=44	=44	=44	=44	=44
4D\|	.	.	8f#\ 8a	8ff#\	.	.	.	.	1ryy	1ryy
.	.	.	4f#\ 4a	4aa\	.	.	.	.	.	.
(4A\	.	.	.	.	.	.	.	.	.	.
.	.	.	4f#\ 4a	4ddd\	.	.	.	.	.	.
4F#\	.	.	.	.	.	.	.	.	.	.
.	.	.	4f#\ 4a	8aa\	.	.	.	.	.	.
4D\)	.	.	.	16gg\LL	.	.	.	.	.	.
.	.	.	.	(16ff#\	.	.	.	.	.	.
.	.	.	8f#\ 8a	16ee\	.	.	.	.	.	.
.	.	.	.	16dd\JJ)	.	.	.	.	.	.
=45	=45	=45	=45	=45	=45	=45	=45	=45	=45	=45
*	*	*	*^	*	*	*	*	*	*	*
!	!	!	!LO:LB:g=original	!	!	!	!	!	!	!	!
(4C#X/	x 6 5	.	8a/	8g\	(32ee\LLL	.	.	.	.	1ryy	1ryy
.	.	.	.	.	32dd\JJ)	.	.	.	.	.	.
!	!	!	!	!	!LO:N:vis=8	!	!	!	!	!	!
.	.	.	.	.	8.cc#X\J	.	.	.	.	.	.
.	.	.	4a/	4g\	.	.	.	.	.	.	.
4E\)	.	.	.	.	(32cc#\LLL	.	.	.	.	.	.
.	.	.	.	.	32b\JJ)	.	.	.	.	.	.
!	!	!	!	!	!LO:N:vis=8	!	!	!	!	!	!
.	.	.	.	.	8.a\J	.	.	.	.	.	.
.	.	.	4a/	4g\	.	.	.	.	.	.	.
(4AA/	x 7 3#r	.	.	.	8r	.	.	.	.	.	.
.	.	.	4a/	4g\	8c#X/L	.	.	.	.	.	.
4C#X/)	.	.	.	.	8e/	.	.	.	.	.	.
.	.	.	8a/	8g\	8g/J	.	.	.	.	.	.
*	*	*	*v	*v	*	*	*	*	*	*	*
=46	=46	=46	=46	=46	=46	=46	=46	=46	=46	=46
4D|\	.	.	8f#\ 8a	8f#/	.	.	.	.	1ryy	1ryy
.	.	.	4f#\ 4a	4a/	.	.	.	.	.	.
(4A\	.	.	.	.	.	.	.	.	.	.
.	.	.	4f#\ 4a	4dd\	.	.	.	.	.	.
4F#\	.	.	.	.	.	.	.	.	.	.
.	.	.	4f#\ 4a	8a/	.	.	.	.	.	.
4D\)	.	.	.	16g/LL	.	.	.	.	.	.
.	.	.	.	16f#/	.	.	.	.	.	.
.	.	.	8f#\ 8a	16e/	.	.	.	.	.	.
.	.	.	.	16d/JJ	.	.	.	.	.	.
=47	=47	=47	=47	=47	=47	=47	=47	=47	=47	=47
*	*	*	*^	*	*	*	*	*	*	*
(4C#X/	x 6 5	.	8a/	8g\	(32ee\LLL	00r	.	00r	.	1ryy	1ryy
.	.	.	.	.	32dd\JJ)	.	.	.	.	.	.
!	!	!	!	!	!LO:N:vis=8	!	!	!	!	!	!
.	.	.	.	.	8.cc#X\J	.	.	.	.	.	.
.	.	.	4a/	4g\	.	.	.	.	.	.	.
4E\)	.	.	.	.	(32cc#\LLL	.	.	.	.	.	.
.	.	.	.	.	32b\JJ)	.	.	.	.	.	.
.	.	.	.	.	8.a\J	.	.	.	.	.	.
.	.	.	4a/	4g\	.	.	.	.	.	.	.
!	!	!	!	!	!LO:LB:g=original	!	!	!	!	!	!
(4AA/	x 7 3#r	.	.	.	8r	.	.	.	.	.	.
.	.	.	4a/	4g\	(8cc#X\L	.	.	.	.	.	.
4C#X/)	.	.	.	.	8ee\	.	.	.	.	.	.
.	.	.	8a/	8g\	8gg\J)	.	.	.	.	.	.
*	*	*	*v	*v	*	*	*	*	*	*	*
=48	=48	=48	=48	=48	=48	=48	=48	=48	=48	=48
4D|\	.	.	4dd\	4ff#\	.	.	.	.	1ryy	1ryy
4A\	x 7 3#r	.	(8.ee\L	(8.gg\L	.	.	.	.	.	.
.	.	.	16cc#X\Jk)	16ee\Jk)	.	.	.	.	.	.
4D\	.	.	(8.dd\L	(8.ff#\L	.	.	.	.	.	.
.	.	.	16ff#\Jk)	16aa\Jk)	.	.	.	.	.	.
4A\	x 7 3#r	.	(8.ee\L	(8.gg\L	.	.	.	.	.	.
.	.	.	16cc#\Jk)	16ee\Jk)	.	.	.	.	.	.
=49	=49	=49	=49	=49	=49	=49	=49	=49	=49	=49
!LO:LB:g=original	!	!	!	!	!	!	!	!	!	!
4D/	.	.	16ee\LL	16gg\LL	.	.	.	.	1ryy	1ryy
.	.	.	(16dd\	(16ff#\	.	.	.	.	.	.
.	.	.	16cc#X\	16ee\	.	.	.	.	.	.
.	.	.	16dd\JJ)	16ff#\JJ)	.	.	.	.	.	.
4AA/	.	.	16ff#\LL	16aa\LL	.	.	.	.	.	.
.	.	.	(16ee\	(16gg\	.	.	.	.	.	.
.	.	.	16dd\	16ff#\	.	.	.	.	.	.
.	.	.	16cc#\JJ)	16ee\JJ)	.	.	.	.	.	.
4D/	x 7 3#r	.	16ee\LL	16gg\LL	.	.	.	.	.	.
.	.	.	(16dd\	(16ff#\	.	.	.	.	.	.
.	.	.	16cc#X\	16ee\	.	.	.	.	.	.
.	.	.	16dd\JJ)	16ff#\JJ)	.	.	.	.	.	.
4AA/	x 7 3#r	.	16ff#\LL	16aa\LL	.	.	.	.	.	.
.	.	.	(16ee\	(16gg\	.	.	.	.	.	.
.	.	.	16dd\	16ff#\	.	.	.	.	.	.
.	.	.	16cc#X\JJ)	16ee\JJ)	.	.	.	.	.	.
=50	=50	=50	=50	=50	=50	=50	=50	=50	=50	=50
4D/	.	.	8.dd\L	(8.ff#\L	.	.	.	.	1ryy	1ryy
.	.	.	16ff#\Jk	16aa\Jk)	.	.	.	.	.	.
!	!	!	!LO:LB:g=original	!	!	!	!	!	!	!
4GG/	.	.	4d/	(8.b\L	.	.	.	.	.	.
.	.	.	.	16gg\Jk)	.	.	.	.	.	.
4AA/	x 6 4	.	(8.d/L	(8.ff#\L	.	.	.	.	.	.
.	.	.	16f#/Jk)	16dd\Jk)	.	.	.	.	.	.
4AA/	x 7 3#r	.	(8.e/L	(8.cc#X\L	.	.	.	.	.	.
.	.	.	16g/Jk)	16ee\Jk)	.	.	.	.	.	.
=51	=51	=51	=51	=51	=51	=51	=51	=51	=51	=51
4DD/	.	.	8f#/L	8dd\L	1r	.	1r	.	1ryy	1ryy
.	.	.	(16f#/L	(16a\L	.	.	.	.	.	.
.	.	.	16g/JJ)	16b\JJ)	.	.	.	.	.	.
4D|\	.	.	8f#/L	8a/L	.	.	.	.	.	.
.	.	.	16d/L	(16f#/L	.	.	.	.	.	.
.	.	.	16e/JJ	16g/JJ)	.	.	.	.	.	.
.	.	.	8qqe/	8qqg/	.	.	.	.	.	.
4DD/	.	.	4d/	4f#/	.	.	.	.	.	.
16d\LL	.	.	4r	4r	.	.	.	.	.	.
16cn\	.	.	.	.	.	.	.	.	.	.
16B\	.	.	.	.	.	.	.	.	.	.
16A\JJ	.	.	.	.	.	.	.	.	.	.
=52	=52	=52	=52	=52	=52	=52	=52	=52	=52	=52
!	!	!	!	!LO:LB:g=original	!	!	!	!	!	!
(1G#X	x 7n 5	.	4r	4r	2d\	Glo-	2ffn\	Glo-	1ryy	1ryy
.	x 6 4	.	4dd\	4ffn\	.	.	.	.	.	.
.	x 5 3	.	4cc\	4ee\	4cn\	-ri-	4ee\	-ri-	.	.
.	.	.	4b\	4dd\	4B\	-a	4dd\	-a	.	.
=53	=53	=53	=53	=53	=53	=53	=53	=53	=53	=53
4A\)	x 4 9	.	4e|/	4dd|\	2B\	Pa-	2dd\	Pa-	1ryy	1ryy
4AA/	.	.	4e|/	4dd|\	.	.	.	.	.	.
4A\	x 3#r 8	.	4e|/	4cc#X|\	2A\	-tri	2cc#X\	-tri	.	.
4Gn\	x 4\ 2	.	4e|/	4cc#|\	.	.	.	.	.	.
=54	=54	=54	=54	=54	=54	=54	=54	=54	=54	=54
(1F#	x 4 5nr	.	4r	4r	2cn\	Pa-	2ee\	pa-	1ryy	1ryy
.	x 6 4	.	4cc/	4ee\	.	.	.	.	.	.
.	x 5 3	.	4b/	4dd\	4B\	-tri	4dd\	-tri	.	.
.	.	.	4a/	4ccn\	4A\	et	4ccn\	et	.	.
=55	=55	=55	=55	=55	=55	=55	=55	=55	=55	=55
4G\)	x 4 9	.	4d/	4cc|\	4.A\	Fi-	4.cc\	fi-	1ryy	1ryy
4GG/	.	.	4d/	4cc|\	.	.	.	.	.	.
.	.	.	.	.	8G\	-li-	8b\	-li-	.	.
4GG/	x 3 8	.	4d/	4b|\	2G\	-o	2b\	-o	.	.
4BB/	x x 6	.	4g/	4b|\	.	.	.	.	.	.
=56	=56	=56	=56	=56	=56	=56	=56	=56	=56	=56
!	!	!	!	!	!LO:LB:g=original	!	!LO:LB:g=original	!	!	!
4C/	x 6 5	.	8g/	(8a|/L	[1G	Glo-	16b\LL	glo-	1ryy	1ryy
.	.	.	.	.	.	.	16a\	.	.	.
.	.	.	4g/	8a|/	.	.	16g\	.	.	.
.	.	.	.	.	.	.	16a\JJ	.	.	.
4C/	.	.	.	8a|/	.	.	4a\	.	.	.
.	.	.	4g/	8a|/J)	.	.	.	.	.	.
*	*	*	*	*tremolo	*	*	*	*	*	*
4D/	x 6 4	.	.	8b/L	.	.	8r	.	.	.
.	.	.	4g/	8b/	.	.	8b\L	.	.	.
4D/	.	.	.	8b/	.	.	8dd\	.	.	.
.	.	.	8g/	8b/J	.	.	8b\J	.	.	.
=57	=57	=57	=57	=57	=57	=57	=57	=57	=57	=57
4E\	x x 6	.	8g/	8cc\L	1G_	.	16dd\LL	.	1ryy	1ryy
.	.	.	.	.	.	.	16cc\	.	.	.
.	.	.	4g/	8cc\	.	.	16b\	.	.	.
.	.	.	.	.	.	.	16cc\JJ	.	.	.
4E\	.	.	.	8cc\	.	.	4cc\	.	.	.
.	.	.	4g/	8cc\J	.	.	.	.	.	.
4D\	x 6 4	.	.	8b\L	.	.	8r	.	.	.
.	.	.	4g/	8b\	.	.	8b\L	.	.	.
4D\	.	.	.	8b\	.	.	8dd\	.	.	.
.	.	.	8g/	8b\J	.	.	8b\J	.	.	.
=58	=58	=58	=58	=58	=58	=58	=58	=58	=58	=58
!LO:LB:g=original	!	!	!LO:LB:g=original	!	!	!	!	!	!	!
4C/	x 6 5	.	8g/	8a/L	1G_	.	16b\LL	.	1ryy	1ryy
.	.	.	.	.	.	.	16a\	.	.	.
.	.	.	4g/	8a/	.	.	16g\	.	.	.
.	.	.	.	.	.	.	16a\JJ	.	.	.
4C/	.	.	.	8a/	.	.	4a\	.	.	.
.	.	.	4g/	8a/J	.	.	.	.	.	.
!	!	!	!	!	!	!	!LO:TUP:a:problem:klamra łukowa	!	!	!
4D/	x 6 4	.	.	8b\L	.	.	12b\L	.	.	.
.	.	.	.	.	.	.	12cc\	.	.	.
.	.	.	4g/	8b\	.	.	.	.	.	.
.	.	.	.	.	.	.	12dd\J	.	.	.
!	!	!	!	!	!	!	!LO:TUP:a:problem:klamra łukowa	!	!	!
4D/	.	.	.	8b\	.	.	12ee\L	.	.	.
.	.	.	.	.	.	.	12ff#\	.	.	.
.	.	.	8g/	8b\J	.	.	.	.	.	.
.	.	.	.	.	.	.	12gg\J	.	.	.
=59	=59	=59	=59	=59	=59	=59	=59	=59	=59	=59
4E\	x x 6	.	8g/	8cc\L	1G_	.	16dd\LL	.	1ryy	1ryy
.	.	.	.	.	.	.	16cc\	.	.	.
.	.	.	4g/	8cc\	.	.	16b\	.	.	.
.	.	.	.	.	.	.	16cc\JJ	.	.	.
4E\	.	.	.	8cc\	.	.	4cc\	.	.	.
.	.	.	4g/	8cc\J	.	.	.	.	.	.
!	!	!	!	!	!	!	!LO:TUP:a:problem:klamra łukowa	!	!	!
4D\	x 6 4	.	.	8b\L	.	.	12b\L	.	.	.
.	.	.	.	.	.	.	12cc\	.	.	.
.	.	.	4g/	8b\	.	.	.	.	.	.
.	.	.	.	.	.	.	12dd\J	.	.	.
!	!	!	!	!	!	!	!LO:TUP:a:problem:klamra łukowa	!	!	!
4D\	.	.	.	8b\	.	.	12ee\L	.	.	.
.	.	.	.	.	.	.	12ff#\	.	.	.
.	.	.	8g/	8b\J	.	.	.	.	.	.
.	.	.	.	.	.	.	12gg\J	.	.	.
*	*	*	*	*Xtremolo	*	*	*	*	*	*
=60	=60	=60	=60	=60	=60	=60	=60	=60	=60	=60
!	!	!	!	!	!	!	!LO:LB:g=original	!	!	!
4C/	x 6 5	.	8g/	4a/	1G]	.	8gg\L	.	1ryy	1ryy
.	.	.	4g/	.	.	.	8a\J	.	.	.
4C/	.	.	.	2a/	.	.	2a\	.	.	.
.	.	.	4g/	.	.	.	.	.	.	.
4C#X/	x 6 5	.	.	.	.	.	.	.	.	.
.	.	.	4g/	.	.	.	.	.	.	.
4C#/	x 4 5	.	.	4b/	.	.	4b\	.	.	.
.	.	.	8g/	.	.	.	.	.	.	.
=61	=61	=61	=61	=61	=61	=61	=61	=61	=61	=61
4D/	x 6 4	.	4b/	4dd\	4B\	.	4dd\	.	1ryy	1ryy
4D/	.	.	(16a/LL	16cc\LL	16A\LL	.	16cc\LL	.	.	.
.	.	.	16g/	(16b\	16G\JJ	.	16b\JJ	.	.	.
.	.	.	16f#/	16a\	16F#\LL	-ri-	16a\LL	-ri-	.	.
.	.	.	16g/JJ)	16b\JJ)	16G\JJ	.	16b\JJ	.	.	.
!	!	!	!	!LO:LB:g=original	!	!	!	!	!	!
4D/	x 5 3	.	4f#/	4a/	4F#\	-a	4a\	-a	.	.
4Cn/	x x 5	.	4cc\	4ee\	8c\	et	8ee\	et	.	.
.	.	.	.	.	8c\	spi-	8ee\	spi-	.	.
=62	=62	=62	=62	=62	=62	=62	=62	=62	=62	=62
4G\	x 6 4	.	8cc\L	8ee\L	8c\	-ri-	8ee\	-ri-	1ryy	1ryy
.	.	.	8b\J	8dd\J	8B\	-tu-	8dd\	-tui	.	.
4GG/	x 5 3	.	2b\	2dd\	2B\	-i	2dd\	San-	.	.
4r	.	.	.	.	.	.	.	.	.	.
4AA/	x x 3	.	4a/	4cc\	8A\	et	4cc\	-cto	.	.
.	.	.	.	.	8A\	spi-	.	.	.	.
=63	=63	=63	=63	=63	=63	=63	=63	=63	=63	=63
.	.	.	8qqb/	8qqdd/	.	.	.	.	.	.
4E\	x 6 4	.	8a/L	(8cc\L	8A\	-ri-	8cc\	Spi-	1ryy	1ryy
.	.	.	8g/J	8b\J)	8G\	-tu-	8b\	-ri-	.	.
!	!	!	!	!	!LO:LB:g=original	!	!	!	!	!
4EE/	x 5 3	.	4g/	4b\	4G\	-i	2b\	-tu-	.	.
4BB/	x x 6	.	4d/	2gg\	2BB/	San-	.	.	.	.
4BB/	.	.	4d/	.	.	.	4gg\	-i	.	.
=64	=64	=64	=64	=64	=64	=64	=64	=64	=64	=64
4C/	x 6 5	.	4e/	4gg\	2C/	.	8gg\L	San-	1ryy	1ryy
.	.	.	.	.	.	.	16ff#\L	.	.	.
.	.	.	.	.	.	.	16ee\JJ	.	.	.
4C/	.	.	4e/	2gg\	.	.	16dd\LL	.	.	.
.	.	.	.	.	.	.	16cc\	.	.	.
.	.	.	.	.	.	.	16b\	.	.	.
.	.	.	.	.	.	.	16a\JJ	.	.	.
4D/	x 6 4	.	4B/	.	2D/	.	4g/	.	.	.
4D/	x 7 3	.	4c/	4ff#\	.	.	4a\	.	.	.
=65	=65	=65	=65	=65	=65	=65	=65	=65	=65	=65
!	!	!LO:DY:a:t=for.	!LO:LB:g=original	!	!	!	!LO:LB:g=original	!	!	!
8GG|/L	.	f	8gg|\L	(8bb\L	2BB/	-cto	2g/	-cto	1ryy	1ryy
8AA|/	.	.	8ff#|\	8aa\)	.	.	.	.	.	.
8BB|/	.	.	8ee|\	(8gg\	.	.	.	.	.	.
8C|/J	.	.	8dd|\J	8ff#\J)	.	.	.	.	.	.
8D|\L	.	.	8cc|\L	(8ee|\L	2r	.	2r	.	.	.
8E|\	.	.	8b|\	8dd|\	.	.	.	.	.	.
8F#|\	.	.	8a|\	8cc|\	.	.	.	.	.	.
8G|\J	.	.	8g|\J	8b|\J)	.	.	.	.	.	.
=66	=66	=66	=66	=66	=66	=66	=66	=66	=66	=66
*	*	*	*^	*	*	*	*	*	*	*
(4F#\	x 6 5	.	8d/	8c\	(16d/LL	1r	.	(32d/LLL	Glo-	1ryy	1ryy
.	.	.	.	.	.	.	.	32e/JJ	.	.	.
.	.	.	.	.	16cc/	.	.	8.f#/J)	.	.	.
.	.	.	4d/	4c\	16a/	.	.	.	.	.	.
.	.	.	.	.	16cc/JJ)	.	.	.	.	.	.
!	!	!LO:DY:b:t=p.	!	!	!	!	!	!	!	!	!
4A\)	.	p	.	.	(16d/LL	.	.	(32f#/LLL	.	.	.
.	.	.	.	.	.	.	.	32g/JJ	.	.	.
.	.	.	.	.	16cc/	.	.	8.a/J)	.	.	.
.	.	.	4d/	4c\	16a/	.	.	.	.	.	.
.	.	.	.	.	16cc/JJ)	.	.	.	.	.	.
(4D\	x x 7	.	.	.	(16d/LL	.	.	(32a\LLL	.	.	.
.	.	.	.	.	.	.	.	32b\JJ	.	.	.
.	.	.	.	.	16cc/	.	.	8.cc\J)	.	.	.
.	.	.	4d/	4c\	16a/	.	.	.	.	.	.
.	.	.	.	.	16cc/JJ)	.	.	.	.	.	.
4F#\)	.	.	.	.	(16d/LL	.	.	(16dd\LL	-ri-	.	.
.	.	.	.	.	16cc/	.	.	16cc\	.	.	.
.	.	.	8d/	8c\	16a/	.	.	16b\	.	.	.
.	.	.	.	.	16cc/JJ)	.	.	16a\JJ)	.	.	.
=67	=67	=67	=67	=67	=67	=67	=67	=67	=67	=67	=67
!	!	!	!	!	!	!LO:TUP:a:problem:klamra łukowa	!	!	!	!	!
.	.	.	.	.	.	.	.	8qqa#X/	.	.	.
4G|\	.	.	8d/	8c\	(16d/LL	12G\L	Glo-	2b\	-a	1ryy	1ryy
.	.	.	.	.	16b/	.	.	.	.	.	.
.	.	.	.	.	.	12A\	.	.	.	.	.
.	.	.	4d/	4c\	16g/	.	.	.	.	.	.
.	.	.	.	.	.	12G\J	.	.	.	.	.
.	.	.	.	.	16b/JJ)	.	.	.	.	.	.
!	!	!	!	!	!	!LO:TUP:a:problem:klamra łukowa	!	!	!	!	!
(4D/	.	.	.	.	(16d/LL	12D\L	.	.	.	.	.
.	.	.	.	.	16b/	.	.	.	.	.	.
.	.	.	.	.	.	12E\	.	.	.	.	.
.	.	.	4d/	4c\	16g/	.	.	.	.	.	.
.	.	.	.	.	.	12D\J	.	.	.	.	.
.	.	.	.	.	16b/JJ)	.	.	.	.	.	.
!	!	!	!	!	!LO:LB:g=original	!LO:TUP:b:problem:klamra łukowa	!	!	!	!	!
4BB/	.	.	.	.	(16d/LL	12BB/L	.	2r	.	.	.
.	.	.	.	.	16b/	.	.	.	.	.	.
.	.	.	.	.	.	12C/	.	.	.	.	.
.	.	.	4d/	4c\	16g/	.	.	.	.	.	.
.	.	.	.	.	.	12BB/J	-ri-	.	.	.	.
.	.	.	.	.	16b/JJ)	.	.	.	.	.	.
!	!	!	!	!	!	!LO:TUP:b:problem:klamra łukowa	!	!	!	!	!
4GG/)	.	.	.	.	(16d/LL	12GG/L	.	.	.	.	.
.	.	.	.	.	16b/	.	.	.	.	.	.
.	.	.	.	.	.	12AA/	.	.	.	.	.
.	.	.	8d/	8c\	16g/	.	.	.	.	.	.
.	.	.	.	.	.	12GG/J	-a	.	.	.	.
.	.	.	.	.	16b/JJ)	.	.	.	.	.	.
=68	=68	=68	=68	=68	=68	=68	=68	=68	=68	=68	=68
(4F#\	x 6 5	.	8d/	8c\	(16d/LL	1r	.	(32d/LLL	et	1ryy	1ryy
.	.	.	.	.	.	.	.	32e/JJ	.	.	.
.	.	.	.	.	16cc/	.	.	8.f#/J)	.	.	.
.	.	.	4d/	4c\	16a/	.	.	.	.	.	.
.	.	.	.	.	16cc/JJ)	.	.	.	.	.	.
4A\)	.	.	.	.	(16d/LL	.	.	(32f#/LLL	Spi-	.	.
.	.	.	.	.	.	.	.	32g/JJ	.	.	.
.	.	.	.	.	16cc/	.	.	8.a/J)	.	.	.
.	.	.	4d/	4c\	16a/	.	.	.	.	.	.
.	.	.	.	.	16cc/JJ)	.	.	.	.	.	.
(4D\	.	.	.	.	(16d/LL	.	.	(32a\LLL	-ri-	.	.
.	.	.	.	.	.	.	.	32b\JJ	.	.	.
.	.	.	.	.	16cc/	.	.	8.cc\J)	.	.	.
.	.	.	4d/	4c\	16a/	.	.	.	.	.	.
.	.	.	.	.	16cc/JJ)	.	.	.	.	.	.
4F#\)	.	.	.	.	(16d/LL	.	.	16dd\LL	-tu-	.	.
.	.	.	.	.	16cc/	.	.	(16cc\	.	.	.
.	.	.	8d/	8c\	16a/	.	.	16b\	.	.	.
.	.	.	.	.	16cc/JJ)	.	.	16a\JJ)	.	.	.
=69	=69	=69	=69	=69	=69	=69	=69	=69	=69	=69	=69
!	!	!	!	!	!	!LO:TUP:a:problem:klamra łukowa	!	!	!	!	!
.	.	.	.	.	.	.	.	8qqa#X/	.	.	.
4G|\	.	.	8d/	8c\	(16d/LL	12G\L	et	2b\	-i	1ryy	1ryy
.	.	.	.	.	16b/	.	.	.	.	.	.
.	.	.	.	.	.	12A\	.	.	.	.	.
.	.	.	4d/	4c\	16g/	.	.	.	.	.	.
.	.	.	.	.	.	12G\J	.	.	.	.	.
.	.	.	.	.	16b/JJ)	.	.	.	.	.	.
!	!	!	!	!	!	!LO:TUP:a:problem:klamra łukowa	!	!	!	!	!
(4D/	.	.	.	.	(16d/LL	12D\L	spi-	.	.	.	.
.	.	.	.	.	16b/	.	.	.	.	.	.
.	.	.	.	.	.	12E\	.	.	.	.	.
.	.	.	4d/	4c\	16g/	.	.	.	.	.	.
.	.	.	.	.	.	12D\J	.	.	.	.	.
.	.	.	.	.	16b/JJ)	.	.	.	.	.	.
!	!	!	!	!	!	!LO:TUP:b:problem:klamra łukowa	!	!	!	!	!
4BB/	.	.	.	.	(16d/LL	12BB/L	.	2r	.	.	.
.	.	.	.	.	16b/	.	.	.	.	.	.
.	.	.	.	.	.	12C/	.	.	.	.	.
.	.	.	4d/	4c\	16g/	.	.	.	.	.	.
.	.	.	.	.	.	12BB/J	ri-	.	.	.	.
.	.	.	.	.	16b/JJ)	.	.	.	.	.	.
!	!	!	!	!	!	!LO:LB:g=original	!	!	!	!	!
!	!	!	!	!	!	!LO:TUP:b:problem:klamra łukowa	!	!	!	!	!
4GG/)	.	.	.	.	(16d/LL	12GG/L	-tu-	.	.	.	.
.	.	.	.	.	16b/	.	.	.	.	.	.
.	.	.	.	.	.	12AA/	.	.	.	.	.
.	.	.	8d/	8c\	16g/	.	.	.	.	.	.
.	.	.	.	.	.	12GG/J	-i	.	.	.	.
.	.	.	.	.	16b/JJ)	.	.	.	.	.	.
=70	=70	=70	=70	=70	=70	=70	=70	=70	=70	=70	=70
!	!	!	!	!	!	!	!	!LO:LB:g=original	!	!	!
(4F#\	x 6 5	.	8d/	8c\	16d/LL	1r	.	(32d/LLL	et	1ryy	1ryy
.	.	.	.	.	.	.	.	32e/JJ	.	.	.
.	.	.	.	.	16a/	.	.	8.f#/J)	.	.	.
.	.	.	4d/	4c\	16f#/	.	.	.	.	.	.
.	.	.	.	.	16a/JJ	.	.	.	.	.	.
4A\)	.	.	.	.	16d/LL	.	.	(32f#/LLL	Spi-	.	.
.	.	.	.	.	.	.	.	32g/JJ	.	.	.
.	.	.	.	.	16a/	.	.	8.a/J)	.	.	.
.	.	.	4d/	4c\	16f#/	.	.	.	.	.	.
.	.	.	.	.	16a/JJ	.	.	.	.	.	.
(4D\	x x 7	.	.	.	16d/LL	.	.	(32a\LLL	-ri-	.	.
.	.	.	.	.	.	.	.	32b\JJ	.	.	.
.	.	.	.	.	16a/	.	.	8.cc\J)	.	.	.
.	.	.	4d/	4c\	16f#/	.	.	.	.	.	.
.	.	.	.	.	16a/JJ	.	.	.	.	.	.
4F#\)	.	.	.	.	16d/LL	.	.	16dd\LL	-tu-	.	.
.	.	.	.	.	16a/	.	.	16cc\	.	.	.
.	.	.	8d/	8c\	16f#/	.	.	16b\	-i	.	.
.	.	.	.	.	16a/JJ	.	.	16a\JJ	.	.	.
*	*	*	*v	*v	*	*	*	*	*	*	*
=71	=71	=71	=71	=71	=71	=71	=71	=71	=71	=71
4G|\	.	.	4gg\	4bb\	4G\	San-	4b\	San-	1ryy	1ryy
4D\	x x 7	.	(8.aa\L	8.ccc\L	(8.A\L	.	(8.cc\L	.	.	.
.	.	.	16gg\Jk)	16aa\Jk	16F#\Jk)	.	16a\Jk)	.	.	.
!	!	!	!	!LO:LB:g=original	!	!	!	!	!	!
4G|\	.	.	(8.gg\L	8.bb\L	(8.G\L	.	(8.b\L	.	.	.
.	.	.	16bb\Jk)	16ddd\Jk	16B\Jk)	.	16dd\Jk)	.	.	.
4D\	x x 7	.	(8.aa\L	8.ccc\L	(8.A\L	.	(8.cc\L	.	.	.
.	.	.	16ff#\Jk)	16aa\Jk	16F#\Jk)	.	16a\Jk)	.	.	.
=72	=72	=72	=72	=72	=72	=72	=72	=72	=72	=72
!	!	!	!LO:LB:g=original	!	!	!	!	!	!	!
4GG/	.	.	16aa\LL	16ccc\LL	(16A\LL	.	(16cc\LL	.	1ryy	1ryy
.	.	.	16gg\	16bb\	16G\)	.	16b\)	.	.	.
.	.	.	16ff#\	16aa\	(16F#\	.	(16a\	.	.	.
.	.	.	16gg\JJ	16bb\JJ	16G\JJ)	.	16b\JJ)	.	.	.
4D/	x x 7	.	16bb\LL	16ccc\LL	(16B\LL	.	(16dd\LL	.	.	.
.	.	.	16aa\	16bb\	16A\)	.	16cc\)	.	.	.
.	.	.	16gg\	16aa\	(16G\	.	(16b\	.	.	.
.	.	.	16ff#\JJ	16bb\JJ	16F#\JJ)	.	16a\JJ)	.	.	.
4GG/	.	.	16aa\LL	16ccc\LL	(16A\LL	.	(16cc\LL	.	.	.
.	.	.	16gg\	16bb\	16G\)	.	16b\)	.	.	.
.	.	.	16ff#\	16aa\	(16F#\	.	(16a\	.	.	.
.	.	.	16gg\JJ	16bb\JJ	16G\JJ)	.	16b\JJ)	.	.	.
4D/	x x 7	.	16bb\LL	16ddd\LL	(16B\LL	.	(16dd\LL	.	.	.
.	.	.	16aa\	16ccc\	16A\)	.	16cc\)	.	.	.
.	.	.	16gg\	16bb\	(16G\	.	(16b\	.	.	.
.	.	.	16ff#\JJ	16aa\JJ	16F#\JJ)	.	16a\JJ)	.	.	.
=73	=73	=73	=73	=73	=73	=73	=73	=73	=73	=73
4G\	.	.	4gg\	4bb\	8.G\L	.	8.b\L	.	1ryy	1ryy
.	.	.	.	.	16B\Jk	.	16gg\Jk	.	.	.
4C/	x 6 5	.	4e/	2g/	(16d\LL	.	16ff#\LL	.	.	.
.	.	.	.	.	16c\)	.	16ee\	.	.	.
.	.	.	.	.	(16B\	.	16dd\	.	.	.
.	.	.	.	.	16A\JJ)	.	16cc\JJ	.	.	.
!	!	!	!	!	!	!	!LO:LB:g=original	!	!	!
!	!	!	!	!	!	!	!LO:TUP:a:problem:klamra łukowa	!	!	!
4D/	x 6 4	.	4d/	.	4G\	.	24b\LL	.	.	.
.	.	.	.	.	.	.	24dd\	.	.	.
.	.	.	.	.	.	.	24cc\JJ	.	.	.
!	!	!	!	!	!	!	!LO:TUP:a:problem:klamra łukowa	!	!	!
.	.	.	.	.	.	.	24b\LL	.	.	.
.	.	.	.	.	.	.	24a\	.	.	.
.	.	.	.	.	.	.	24g\JJ	.	.	.
4DD/	x 7 3	.	4c/	4f#/	4F#\	.	4a\	.	.	.
=74	=74	=74	=74	=74	=74	=74	=74	=74	=74	=74
!LO:TX:t=P:problem:mixed beam	!	!	!	!	!LO:LB:g=original	!	!	!	!	!
.	.	.	.	.	8qqF#/	.	.	.	.	.
8GG/L	.	.	2B/	2g/	2G\	-cto	2g/	-cto	1ryy	1ryy
(8G\	.	.	.	.	.	.	.	.	.	.
8F#\	.	.	.	.	.	.	.	.	.	.
8G\J)	.	.	.	.	.	.	.	.	.	.
4GG/	.	.	8.c/L	(8.a/L	2r	.	2r	.	.	.
.	.	.	16B/Jk	16g/Jk)	.	.	.	.	.	.
4GG/	.	.	(8.e/L	(8.cc\L	.	.	.	.	.	.
.	.	.	16d/Jk)	16b\Jk)	.	.	.	.	.	.
=75	=75	=75	=75	=75	=75	=75	=75	=75	=75	=75
!LO:LB:g=original	!	!	!	!	!LO:TX:a:t=12	!	!LO:TX:a:t=12	!	!	!
4GG|/	.	.	(8.e/L	(8cc\L	00r	.	00r	.	1ryy	1ryy
.	.	.	.	8b\)	.	.	.	.	.	.
.	.	.	16d/Jk)	.	.	.	.	.	.	.
4GG|/	.	.	(8d/L	(8b\	.	.	.	.	.	.
.	.	.	8c/J)	8a\J)	.	.	.	.	.	.
4GG|/	.	.	(8c/L	(8a/L	.	.	.	.	.	.
.	.	.	8B/J)	8g/)	.	.	.	.	.	.
4GG|/	.	.	(8B/L	(8g/	.	.	.	.	.	.
.	.	.	8A/J)	8f#/J)	.	.	.	.	.	.
=76	=76	=76	=76	=76	=76	=76	=76	=76	=76	=76
8r	.	.	2g/	2G/ 2d 2b	.	.	.	.	1ryy	1ryy
8G\L	.	.	.	.	.	.	.	.	.	.
8F#\	.	.	.	.	.	.	.	.	.	.
8G\J	.	.	.	.	.	.	.	.	.	.
4GG/	.	.	(8a/L	(8cc\L	.	.	.	.	.	.
.	.	.	8g/J)	8b\)	.	.	.	.	.	.
4GG/	.	.	(8cc\L	(8ee\	.	.	.	.	.	.
.	.	.	8b\J)	8dd\J)	.	.	.	.	.	.
=77	=77	=77	=77	=77	=77	=77	=77	=77	=77	=77
!	!	!	!	!LO:LB:g=original	!	!	!	!	!	!
4GG|/	.	.	(8cc\L	(8ee\L	.	.	.	.	1ryy	1ryy
.	.	.	8b\)	8dd\)	.	.	.	.	.	.
4GG|/	.	.	(8b\	(8dd\	.	.	.	.	.	.
.	.	.	8a\J)	8cc\J)	.	.	.	.	.	.
4GG|/	.	.	(8a/L	(8cc\L	.	.	.	.	.	.
.	.	.	8g/)	8b\)	.	.	.	.	.	.
4GG|/	.	.	(8g/	(8b\	.	.	.	.	.	.
.	.	.	8f#/J)	8a\J)	.	.	.	.	.	.
=78	=78	=78	=78	=78	=78	=78	=78	=78	=78	=78
!	!	!	!LO:LB:g=original	!	!	!	!	!	!	!
4G\	.	.	(8g/L	8b\L	.	.	.	.	1ryy	1ryy
.	.	.	8d/)	8gg\J	.	.	.	.	.	.
4B\	x x 6	.	(8g/	4gg\	.	.	.	.	.	.
.	.	.	8d/J)	.	.	.	.	.	.	.
4F#\	x 6 5	.	(8a/L	8aa\L	.	.	.	.	.	.
.	.	.	8d/)	8cc\J	.	.	.	.	.	.
4D\	x x 7	.	(8f#/	4cc\	.	.	.	.	.	.
.	.	.	8d/J)	.	.	.	.	.	.	.
=79	=79	=79	=79	=79	=79	=79	=79	=79	=79	=79
4GG/	.	.	(8g/L	8b\L	00r	.	00r	.	1ryy	1ryy
.	.	.	8d/)	8gg\J	.	.	.	.	.	.
4B\	x x 6	.	(8g/	16r	.	.	.	.	.	.
.	.	.	.	16gg\KL	.	.	.	.	.	.
.	.	.	8d/J)	8gg\J	.	.	.	.	.	.
4F#\	x 6 5	.	(8a/L	8aa\L	.	.	.	.	.	.
.	.	.	8d/)	8cc\J	.	.	.	.	.	.
4D\	x x 7	.	(8f#/	16r	.	.	.	.	.	.
.	.	.	.	16cc\KL	.	.	.	.	.	.
.	.	.	8d/J)	8cc\J	.	.	.	.	.	.
=80	=80	=80	=80	=80	=80	=80	=80	=80	=80	=80
4G\	.	.	4d/	(8.b\L	.	.	.	.	1ryy	1ryy
.	.	.	.	16dd\Jk)	.	.	.	.	.	.
4G\	.	.	(16e/LL	16cc\LL	.	.	.	.	.	.
.	.	.	16d/)	(16b\	.	.	.	.	.	.
.	.	.	(16c/	16a\	.	.	.	.	.	.
.	.	.	16B/JJ)	16g\JJ)	.	.	.	.	.	.
4d\	x x 7	.	4c/	(8.a\L	.	.	.	.	.	.
.	.	.	.	16cc\Jk)	.	.	.	.	.	.
4D\	.	.	(16d/LL	16b\LL	.	.	.	.	.	.
.	.	.	16c/	(16a\	.	.	.	.	.	.
.	.	.	16B/	16g\	.	.	.	.	.	.
.	.	.	16A/JJ)	16f#\JJ)	.	.	.	.	.	.
=81	=81	=81	=81	=81	=81	=81	=81	=81	=81	=81
!	!	!	!	!LO:TUP:b:problem:klamra łukowa	!	!	!	!	!	!
2E\	x x 5	.	4r	12g/L	.	.	.	.	1ryy	1ryy
.	x x 6	.	.	12a/	.	.	.	.	.	.
.	.	.	.	12b/J	.	.	.	.	.	.
!	!	!	!	!LO:TUP:a:problem:klamra łukowa	!	!	!	!	!	!
.	.	.	8.g\L	12cc\L	.	.	.	.	.	.
.	.	.	.	12dd\	.	.	.	.	.	.
.	.	.	.	12ee\J	.	.	.	.	.	.
.	.	.	16cc\Jk	.	.	.	.	.	.	.
!	!	!	!	!LO:LB:g=original	!	!	!	!	!	!
2F#\	x 7 5	.	4cc\	4ee\	.	.	.	.	.	.
.	x 6 4	.	(8.b\L	8.dd\L	.	.	.	.	.	.
.	x 5 3	.	16a\Jk)	16cc\Jk	.	.	.	.	.	.
=82	=82	=82	=82	=82	=82	=82	=82	=82	=82	=82
!LO:LB:g=original	!	!	!	!	!	!	!	!	!	!
4G\	.	.	4d/	(8b\L	.	.	.	.	1ryy	1ryy
.	.	.	.	8dd\J)	.	.	.	.	.	.
4GG/	.	.	(16e/LL	(16cc\LL	.	.	.	.	.	.
.	.	.	16d/)	16b\	.	.	.	.	.	.
.	.	.	(16c/	16a\	.	.	.	.	.	.
.	.	.	16B/JJ)	16g\JJ)	.	.	.	.	.	.
4D/	.	.	4c/	8a\L	.	.	.	.	.	.
.	.	.	.	8cc\J	.	.	.	.	.	.
4D/	.	.	16d/LL	(16b\LL	.	.	.	.	.	.
.	.	.	16c/	16a\	.	.	.	.	.	.
.	.	.	16B/	16g\	.	.	.	.	.	.
.	.	.	16A/JJ	16f#\JJ)	.	.	.	.	.	.
=83	=83	=83	=83	=83	=83	=83	=83	=83	=83	=83
!	!	!	!	!LO:TUP:b:problem:klamra łukowa	!	!	!	!	!	!
2E\	x x 5	.	4r	12g/L	00r	.	00r	.	1ryy	1ryy
.	x x 6	.	.	12a/	.	.	.	.	.	.
.	.	.	.	12b/J	.	.	.	.	.	.
!	!	!	!	!LO:TUP:a:problem:klamra łukowa	!	!	!	!	!	!
.	.	.	8.g/L	12cc\L	.	.	.	.	.	.
.	.	.	.	12dd\	.	.	.	.	.	.
.	.	.	.	12ee\J	.	.	.	.	.	.
.	.	.	16cc/Jk	.	.	.	.	.	.	.
!	!	!	!LO:LB:g=original	!	!	!	!	!	!	!
2F#\	x 7 5	.	4cc\	4ee\	.	.	.	.	.	.
.	x 6 4	.	8.b\L	8.dd\L	.	.	.	.	.	.
.	x 5 3	.	16a\Jk	16cc\Jk	.	.	.	.	.	.
=84	=84	=84	=84	=84	=84	=84	=84	=84	=84	=84
4G\	.	.	4d/	(8.b\L	.	.	.	.	1ryy	1ryy
.	.	.	.	16dd\Jk)	.	.	.	.	.	.
4GG/	.	.	16e/LL	16cc\LL	.	.	.	.	.	.
.	.	.	(16d/	(16b\	.	.	.	.	.	.
.	.	.	16c/	16a\	.	.	.	.	.	.
.	.	.	16B/JJ)	16g\JJ)	.	.	.	.	.	.
4D/	x x 7	.	4c/	(8.a\L	.	.	.	.	.	.
.	.	.	.	16cc\Jk)	.	.	.	.	.	.
4D/	.	.	(16d/LL	16b\LL	.	.	.	.	.	.
.	.	.	16c/)	(16a\	.	.	.	.	.	.
.	.	.	(16B/	16g\	.	.	.	.	.	.
.	.	.	16A/JJ)	16f#\JJ)	.	.	.	.	.	.
=85	=85	=85	=85	=85	=85	=85	=85	=85	=85	=85
4GG|/	x x 3	.	(8B/L	4g/	.	.	.	.	1ryy	1ryy
.	.	.	8d/)	.	.	.	.	.	.	.
4GG|/	x 6 4	.	(8B/	4e/	.	.	.	.	.	.
.	.	.	8e/J)	.	.	.	.	.	.	.
4GG|/	x 5 3	.	8B/L	4d/	.	.	.	.	.	.
.	.	.	8d/	.	.	.	.	.	.	.
4GG|/	7 4 2	.	8c/	4cc\	.	.	.	.	.	.
.	.	.	8e/J	.	.	.	.	.	.	.
=86	=86	=86	=86	=86	=86	=86	=86	=86	=86	=86
!	!	!	!	!LO:LB:g=original	!	!	!	!	!	!
1AA;<	7 4 2	.	2A/	2cc\	.	.	.	.	1ryy	1ryy
!	!	!	!LO:TX:b:t=Verte ſicut erat	!	!	!	!	!	!	!
.	8 5 3	.	2G/	2b\	.	.	.	.	.	.
==87	==87	==87	==87	==87	==87	==87	==87	==87	==87	==87
*M4/4	*	*	*M4/4	*M4/4	*M4/4	*	*M4/4	*	*M4/4	*M4/4
*met(c)	*	*	*met(c)	*met(c)	*met(c)	*	*met(c)	*	*met(c)	*met(c)
*k[f#]	*	*	*k[f#]	*	*k[f#]	*	*k[f#]	*	*	*
!LO:LB:g=original	!	!	!	!	!	!	!	!	!	!
!LO:TX:a:t=Tutti	!	!	!LO:TX:a:t=Sicut:rj	!LO:PB:g=original	!	!	!LO:PB:g=original	!	!	!
!LO:TX:a:B:t=Adagio:rj	!	!	!LO:TX:a:B:t=Adagio:rj	!LO:TX:a:B:t=Adagio:rj	!LO:TX:a:B:t=Adagio:rj	!	!LO:TX:a:B:t=Adagio	!	!	!
8GG/L	.	.	16B/LL 16d	(16g/LL	4B\	Si-	4.dd\	Si-	1ryy	1ryy
.	.	.	16B/ 16d	16b/)	.	.	.	.	.	.
8GG/	.	.	16B/ 16d	(16b/	.	.	.	.	.	.
.	.	.	16B/JJ 16d	16dd/JJ)	.	.	.	.	.	.
*	*	*	*tremolo	*	*	*	*	*	*	*
8GG/	.	.	16B/LL 16d	(16dd\LL	4B\	-cut	.	.	.	.
.	.	.	16B/ 16d	16gg\)	.	.	.	.	.	.
8GG/J	.	.	16B/ 16d	(16gg\	.	.	8dd\	-cut	.	.
.	.	.	16B/ 16d	16bb\JJ)	.	.	.	.	.	.
*tremolo	*	*	*	*	*	*	*	*	*	*
8G|\L	.	.	16B/ 16d	(16bb\LL	4.B\	e-	4.dd\	e-	.	.
.	.	.	16B/ 16d	16gg\)	.	.	.	.	.	.
8G|\	.	.	16B/ 16d	(16gg\	.	.	.	.	.	.
.	.	.	16B/JJ 16d	16dd\JJ)	.	.	.	.	.	.
*	*	*	*Xtremolo	*	*	*	*	*	*	*
8G|\	.	.	16B/LL 16d	(16dd\LL	.	.	.	.	.	.
.	.	.	16B/ 16d	16b\)	.	.	.	.	.	.
8G|\J	.	.	16B/ 16d	(16b\	8B\	-rat	8dd\	-rat	.	.
.	.	.	16B/JJ 16d	16g\JJ)	.	.	.	.	.	.
=88	=88	=88	=88	=88	=88	=88	=88	=88	=88	=88
*	*	*	*tremolo	*	*	*	*	*	*	*
8GG/L	x 6 4	.	16c/LL 16e	(16g\LL	4c\	in	4ee\	in	1ryy	1ryy
.	.	.	16c/ 16e	16cc\)	.	.	.	.	.	.
8GG/	.	.	16c/ 16e	(16cc\	.	.	.	.	.	.
.	.	.	16c/ 16e	16ee\JJ)	.	.	.	.	.	.
8GG/	.	.	16c/ 16e	(16ee\LL	4c\	prin-	4ee\	prin-	.	.
.	.	.	16c/ 16e	16gg\)	.	.	.	.	.	.
8GG/J	.	.	16c/ 16e	(16gg\	.	.	.	.	.	.
.	.	.	16c/JJ 16e	16ccc\JJ)	.	.	.	.	.	.
8G\L	x 6 4	.	16c/LL 16e	(16ccc\LL	8.c\	-ci-	8.ee\	-ci-	.	.
.	.	.	16c/ 16e	16gg\)	.	.	.	.	.	.
8G\	.	.	16c/ 16e	(16gg\	.	.	.	.	.	.
.	.	.	16c/ 16e	16cc\JJ)	16c\	-pi-	16ee\	-pi-	.	.
8G\	.	.	16c/ 16e	(16cc\LL	4c\	-o	4ee\	-o	.	.
.	.	.	16c/ 16e	16a\)	.	.	.	.	.	.
8G\J	.	.	16c/ 16e	(16cc\	.	.	.	.	.	.
.	.	.	16c/JJ 16e	16g\JJ)	.	.	.	.	.	.
=89	=89	=89	=89	=89	=89	=89	=89	=89	=89	=89
8F#\L	x 6 5	.	16c/LL 16d	(16g\LL	2F#\	et	2a\	et	1ryy	1ryy
.	.	.	16c/ 16d	16cc\)	.	.	.	.	.	.
8F#\	.	.	16c/ 16d	(16cc\	.	.	.	.	.	.
.	.	.	16c/ 16d	16ff#\JJ)	.	.	.	.	.	.
8F#\	.	.	16c/ 16d	(16ff#\LL	.	.	.	.	.	.
.	.	.	16c/ 16d	16aa\)	.	.	.	.	.	.
8F#\J	.	.	16c/ 16d	(16aa\	.	.	.	.	.	.
.	.	.	16c/JJ 16d	16ccc\JJ)	.	.	.	.	.	.
!	!	!	!	!LO:LB:g=original	!	!	!	!	!	!
8F#\L	x 6 5	.	16c/LL 16d	16ccc\LL	4F#\	nunc	4a\	nunc	.	.
.	.	.	16c/ 16d	16aa\	.	.	.	.	.	.
8F#\	.	.	16c/ 16d	16aa\	.	.	.	.	.	.
.	.	.	16c/ 16d	16ff#\JJ	.	.	.	.	.	.
8F#\	.	.	16c/ 16d	16ff#\LL	4F#\	et	4cc\	et	.	.
.	.	.	16c/ 16d	16dd\	.	.	.	.	.	.
8F#\J	.	.	16c/ 16d	16cc\	.	.	.	.	.	.
.	.	.	16c/JJ 16d	16b\JJ	.	.	.	.	.	.
*Xtremolo	*	*	*Xtremolo	*	*	*	*	*	*	*
=90	=90	=90	=90	=90	=90	=90	=90	=90	=90	=90
(>16G\LL	.	.	16B/LL 16d	(8b\L	(8G\L	et	(8b\L	ſem-	1ryy	1ryy
16D\)	.	.	16d/	.	.	.	.	.	.	.
(16A\	x x 6	.	16d/	8ff#\	8A\J)	.	8cc\J)	.	.	.
16D\JJ)	.	.	16d/JJ	.	.	.	.	.	.	.
(16B\LL	x x 6	.	16d/LL	8gg\	(8B\L	sem-	(8dd\L	-per	.	.
16D\)	.	.	16d/	.	.	.	.	.	.	.
(16F#\	x 6 5	.	16d/	8cc\J)	8F#\J)	.	8a\J)	.	.	.
16D\JJ)	.	.	16d/JJ	.	.	.	.	.	.	.
*	*	*	*tremolo	*	*	*	*	*	*	*
(16G\LL	.	.	16d/LL	(8b/L	(8G\L	-per	(8b\L	ſem-	.	.
16D\)	.	.	16d/	.	.	.	.	.	.	.
(16A\	x x 6	.	16d/	8f#/)	8A\J)	.	8cc\J)	.	.	.
16D\JJ)	.	.	16d/	.	.	.	.	.	.	.
!	!	!	!	!	!LO:LB:g=original	!	!	!	!	!
(16B\LL	x x 6	.	16d/	(8g/	(8B\L	sem-	(8dd\L	.	.	.
16D\)	.	.	16d/	.	.	.	.	.	.	.
(16F#\	x 6 5	.	16d/	8cc/J)	8F#\J)	.	8a\J)	.	.	.
16D\JJ)	.	.	16d/JJ	.	.	.	.	.	.	.
*	*	*	*Xtremolo	*	*	*	*	*	*	*
=91	=91	=91	=91	=91	=91	=91	=91	=91	=91	=91
*	*	*	*^	*	*	*	*	*	*	*
!LO:LB:g=original	!	!	!	!	!	!	!	!	!	!	!
!LO:TX:t=P:problem:mixed beam	!	!	!	!	!	!	!	!	!	!	!
8GG/L	.	.	16d/LL	2ryy	8b\	(8.G\L	.	4.b\	.	1ryy	1ryy
.	.	.	16g/	.	.	.	.	.	.	.	.
16.G\L	.	.	16g/	.	(4b\	.	.	.	.	.	.
.	.	.	16g/JJ	.	.	16F#\Jk)	.	.	.	.	.
32F#\JJk	.	.	.	.	.	.	.	.	.	.	.
8E\L	x x 5	.	16g/LL	.	.	4E\	-per	.	.	.	.
.	.	.	16g/	.	.	.	.	.	.	.	.
8E\J	x x 6\	.	16g/	.	8cc#X\)	.	.	8cc\	.	.	.
.	.	.	16g/JJ	.	.	.	.	.	.	.	.
!	!	!	!	!	!	!	!	!LO:LB:g=original	!	!	!
*	*	*	*tremolo	*tremolo	*	*	*	*	*	*	*
8D|\L	.	.	16a/LL	16f#\LL	(16d/LL	4D\	et	8dd\	-per	.	.
.	.	.	16a/	16f#\	16f#/)	.	.	.	.	.	.
8D|\	.	.	16a/	16f#\	(16f#/	.	.	8dd\	.	.	.
.	.	.	16a/	16f#\	16a/JJ)	.	.	.	.	.	.
8D|\	.	.	16a/	16f#\	(16a\LL	8F#\	in	8a\	in	.	.
.	.	.	16a/	16f#\	16dd\)	.	.	.	.	.	.
8D|\J	.	.	16a/	16f#\	(16dd\	8F#\	se-	8a\	.	.	.
.	.	.	16a/JJ	16f#\JJ	16ff#\JJ)	.	.	.	.	.	.
=92	=92	=92	=92	=92	=92	=92	=92	=92	=92	=92	=92
*tremolo	*	*	*	*	*	*	*	*	*	*	*
8D|/L	.	.	16a/LL	16f#\LL	(16ff#\LL	8.F#\	-cu-	8.g\	ſe-	1ryy	1ryy
.	.	.	16a/	16f#\	16dd\)	.	.	.	.	.	.
8D|/	.	.	16a/	16f#\	(16cc\	.	.	.	.	.	.
.	.	.	16a/	16f#\	16a\JJ)	16F#\	-la	16a\	-cu-	.	.
8D|/	.	.	16a/	16f#\	(16a/LL	4F#\	se-	4a\	-la	.	.
.	.	.	16a/	16f#\	16f#/)	.	.	.	.	.	.
8D|/J	.	.	16a/	16f#\	(16f#/	.	.	.	.	.	.
.	.	.	16a/JJ	16f#\JJ	16d/JJ)	.	.	.	.	.	.
8D/L	x 6 4	.	16b/LL	16g\LL	(16d/LL	2G\	-cu-	2b\	ſe-	.	.
.	.	.	16b/	16g\	16g/)	.	.	.	.	.	.
8D/	.	.	16b/	16g\	(16g/	.	.	.	.	.	.
.	.	.	16b/	16g\	16b/JJ)	.	.	.	.	.	.
8D/	.	.	16b/	16g\	(16b\LL	.	.	.	.	.	.
.	.	.	16b/	16g\	16dd\)	.	.	.	.	.	.
8D/J	.	.	16b/	16g\	(16dd\	.	.	.	.	.	.
.	.	.	16b/JJ	16g\JJ	16gg\JJ)	.	.	.	.	.	.
=93	=93	=93	=93	=93	=93	=93	=93	=93	=93	=93	=93
!	!	!	!LO:LB:g=original	!	!	!	!	!	!	!	!
8D/L	x 6 4	.	16b/LL	16g\LL	(16gg\LL	2G\	-lo-	2b\	-cu-	1ryy	1ryy
.	.	.	16b/	16g\	16dd\)	.	.	.	.	.	.
8D/	.	.	16b/	16g\	(16dd\	.	.	.	.	.	.
.	.	.	16b/	16g\	16b\JJ)	.	.	.	.	.	.
8D/	.	.	16b/	16g\	(16b/LL	.	.	.	.	.	.
.	.	.	16b/	16g\	16g/)	.	.	.	.	.	.
8D/J	.	.	16b/	16g\	(16g/	.	.	.	.	.	.
.	.	.	16b/JJ	16g\JJ	16d/JJ)	.	.	.	.	.	.
!	!	!	!	!	!LO:LB:g=original	!	!	!	!	!	!
8C#X/L	x 6 5	.	16a/LL	16g\LL	(16e/LL	2C#X/	-rum	2a\	-lo-	.	.
.	.	.	16a/	16g\	16g/)	.	.	.	.	.	.
8C#/	.	.	16a/	16g\	(16g/	.	.	.	.	.	.
.	.	.	16a/	16g\	16cc#X/JJ)	.	.	.	.	.	.
8C#/	.	.	16a/	16g\	(16cc#\LL	.	.	.	.	.	.
.	.	.	16a/	16g\	16dd\)	.	.	.	.	.	.
8C#/J	.	.	16a/	16g\	(16ee\	.	.	.	.	.	.
.	.	.	16a/JJ	16g\JJ	16gg\JJ)	.	.	.	.	.	.
=94	=94	=94	=94	=94	=94	=94	=94	=94	=94	=94	=94
8C#X/L	x 6 5	.	16a/LL	16g\LL	(16gg\LL	2C#X/	a-	4.a\	-rum	1ryy	1ryy
.	.	.	16a/	16g\	16ee\)	.	.	.	.	.	.
8C#/	.	.	16a/	16g\	(16ee\	.	.	.	.	.	.
.	.	.	16a/	16g\	16cc#X\JJ)	.	.	.	.	.	.
8C#/	.	.	16a/	16g\	(16cc#\LL	.	.	.	.	.	.
.	.	.	16a/	16g\	16a\)	.	.	.	.	.	.
8C#/J	.	.	16a/	16g\	(16g\	.	.	8g/	.	.	.
.	.	.	16a/JJ	16g\JJ	16f#\JJ)	.	.	.	.	.	.
*Xtremolo	*	*	*Xtremolo	*Xtremolo	*	*	*	*	*	*	*
!	!	!	!	!	!LO:TX:t=P:problem:chorągiewka	!	!	!	!	!	!
!	!	!	!	!	!LO:TX:t=P:problem:mixed beam	!	!	!	!	!	!
(16D\LL	.	.	16f#/LL	2ryy	8d/L 8a 8ff#	(8D\L	.	(8f#/L	a-	.	.
16AA\)	.	.	16a/	.	.	.	.	.	.	.	.
(16E\	x x 6\	.	16a/	.	8cc#X\	8E\J)	.	8g/J)	.	.	.
16AA\JJ)	.	.	16a/JJ	.	.	.	.	.	.	.	.
(16F#\LL	x x 6	.	16a/LL	.	8dd\	(8F#\L	.	8a\L	-men	.	.
16AA\)	.	.	16a/	.	.	.	.	.	.	.	.
(16C#X\	x 6 5	.	16a/	.	8b\J	8C#X\J)	.	8g\J	.	.	.
16AA\JJ)	.	.	16a/JJ	.	.	.	.	.	.	.	.
*	*	*	*v	*v	*	*	*	*	*	*	*
=95	=95	=95	=95	=95	=95	=95	=95	=95	=95	=95
*	*	*	*tremolo	*	*	*	*	*	*	*
!	!	!	!	!	!LO:LB:g=original	!	!	!	!	!
(16D\LL	.	.	16a/LL	(8f#\L	(8D\L	.	(8f#/L	a-	1ryy	1ryy
16AA\)	.	.	16a/	.	.	.	.	.	.	.
(16E\	x x 6\	.	16a/	8cc#X\J)	8E\J)	.	8g/J)	.	.	.
16AA\JJ)	.	.	16a/	.	.	.	.	.	.	.
(16F#\LL	x x 6	.	16a/	8dd\L	(8F#\L	.	(8a\L	.	.	.
16AA\)	.	.	16a/	.	.	.	.	.	.	.
(16C#X\	x 6 5	.	16a/	8gg\J	8C#X\J)	.	8g\J)	.	.	.
16AA\JJ)	.	.	16a/JJ	.	.	.	.	.	.	.
8D/L	.	.	16a\LL	8ff#\	(8D/L	.	4.f#/	.	.	.
*	*	*	*Xtremolo	*	*	*	*	*	*	*
.	.	.	16dd\	.	.	.	.	.	.	.
16.D/L	.	.	16dd\	4ff#\	8C#X/J)	.	.	.	.	.
.	.	.	16dd\JJ	.	.	.	.	.	.	.
32C#X/JJk	.	.	.	.	.	.	.	.	.	.
8BB/L	x x 5	.	16dd\LL	.	4BB/	.	.	.	.	.
.	.	.	16dd\	.	.	.	.	.	.	.
8BB/J	x x 6\	.	16dd\	8gg#X\	.	.	8g#X/	.	.	.
.	.	.	16dd\JJ	.	.	.	.	.	.	.
=96	=96	=96	=96	=96	=96	=96	=96	=96	=96	=96
!LO:LB:g=original	!	!	!	!	!	!	!	!	!	!
8AA/L	x 5 3#r	.	(16cc#X\LL	8aa\	4AA/	men	4a\	-men	1r	1r
.	.	.	16a\JJ)	.	.	.	.	.	.	.
8AA/	x 6 4	.	(16d/LL	4f#/	.	.	.	.	.	.
.	.	.	16f#/JJ)	.	.	.	.	.	.	.
8AA/	x 6 4	.	(16d/LL	.	4r	.	4r	.	.	.
.	.	.	16f#/JJ)	.	.	.	.	.	.	.
8AA/J	7#r 4 2	.	(16B/LL	8g#X/	.	.	.	.	.	.
.	.	.	16d/JJ)	.	.	.	.	.	.	.
8AA/L	x 8 3#r	.	16c#X/LL	8a/	2r	.	2r	.	.	.
.	.	.	16a/	.	.	.	.	.	.	.
16.D/L	.	.	16a/	4ff#\	.	.	.	.	.	.
.	.	.	16a/JJ	.	.	.	.	.	.	.
32C#X/JJk	.	.	.	.	.	.	.	.	.	.
8BB/L	x x 5	.	16dd\LL	.	.	.	.	.	.	.
.	.	.	16dd\	.	.	.	.	.	.	.
8BB/J	x x 6\	.	16dd\	8gg#X\	.	.	.	.	.	.
.	.	.	16dd\JJ	.	.	.	.	.	.	.
=97	=97	=97	=97	=97	=97	=97	=97	=97	=97	=97
!	!	!	!	!	!LO:TX:b:t=Volti ſubito amen	!	!	!	!	!
8AA|/L	x 5 3#r	.	(16cc#X\LL	8aa\	1r	.	1r	.	1r	1r
.	.	.	16a\JJ)	.	.	.	.	.	.	.
8AA|/	x 6 4	.	(16d/LL	4f#/	.	.	.	.	.	.
.	.	.	16f#/JJ)	.	.	.	.	.	.	.
8AA|/	x 6 4	.	(16d/LL	.	.	.	.	.	.	.
.	.	.	16f#/JJ)	.	.	.	.	.	.	.
8AA|/J	7#r 4 2	.	(16B/LL	8g#X/	.	.	.	.	.	.
.	.	.	16d/JJ)	.	.	.	.	.	.	.
.	.	.	.	8qqg#/	.	.	.	.	.	.
2AA;</	8 5 3#r	.	2c#X/ 2e	2a/	.	.	.	.	.	.
!LO:TX:b:t=allo aſsai Verte Cito	!	!	!	!	!	!	!	!	!	!
==98	==98	==98	==98	==98	==98	==98	==98	==98	==98	==98
!!!key:D
*k[f#c#]	*	*	*k[f#c#]	*k[f#c#]	*k[f#c#]	*	*k[f#c#]	*	*k[f#c#]	*k[f#c#]
*M3/4	*	*	*M3/4	*M3/4	*M3/4	*	*M3/4	*	*M3/4	*M3/4
!	!	!	!	!	!	!	!	!	!	!LO:TX:t=P:problem:dużo błędów w zapisie tej części. Poukładana ale wciąż dużo dysonansów
!LO:PB:g=original	!	!	!	!	!	!	!LO:LB:g=original	!	!	!LO:TX:a:B:t=Allo Aſsai Amen
!LO:TX:a:t=Tutti	!	!	!LO:TX:a:B:t=Allo aſsai:rj	!LO:LB:g=original	!	!	!LO:TX:a:t=7	!	!	!
!LO:TX:a:B:t=Allo aſsai:rj	!	!	!LO:TX:a:t=7	!LO:TX:a:B:t=Allo aſsai:rj	!LO:TX:a:B:t=Allo aſsa:rj	!	!LO:TX:a:B:t=Allo Aſsai:rj	!	!LO:TX:a:B:t=Allo Aſsai:rj	!
2.D\	.	.	0.r	4r	2.D\	a-	0.r	.	2.F#/	2.d\
.	.	.	.	8dd\L	.	.	.	.	.	.
.	.	.	.	8cc#\J	.	.	.	.	.	.
.	.	.	.	4dd\	.	.	.	.	.	.
=99	=99	=99	=99	=99	=99	=99	=99	=99	=99	=99
2.F#\	.	.	.	4r	2.F#\	.	.	.	2.d\	2.f#\
.	.	.	.	8dd\L	.	.	.	.	.	.
.	.	.	.	8cc#\J	.	.	.	.	.	.
.	.	.	.	4dd\	.	.	.	.	.	.
=100	=100	=100	=100	=100	=100	=100	=100	=100	=100	=100
2.B\	.	.	.	4r	2.B\	.	.	.	2.g\	2.b\
.	.	.	.	8dd\L	.	.	.	.	.	.
.	.	.	.	8cc#\J	.	.	.	.	.	.
.	.	.	.	4dd\	.	.	.	.	.	.
=101	=101	=101	=101	=101	=101	=101	=101	=101	=101	=101
2.G#X\	.	.	.	4r	2.G#X\	-men	.	.	2.e#X\	2.g#X\
.	.	.	.	8dd\L	.	.	.	.	.	.
.	.	.	.	8cc#\J	.	.	.	.	.	.
.	.	.	.	4dd\	.	.	.	.	.	.
=102	=102	=102	=102	=102	=102	=102	=102	=102	=102	=102
!	!	!	!	!	!	!	!	!	!LO:TX:a:t=14	!LO:TX:a:t=14
4AA|/	.	.	1.r	2cc#\	4AA/	a-	1.r	.	0.r	0.r
4Gn|\	.	.	.	.	4Gn\	.	.	.	.	.
4F#|\	.	.	.	4dd\	4F#\	.	.	.	.	.
=103	=103	=103	=103	=103	=103	=103	=103	=103	=103	=103
4E\	.	.	.	4gg\	4E\	.	.	.	.	.
4D\	.	.	.	4aa\	4D\	.	.	.	.	.
4C#\	.	.	.	4a/	4C#\	.	.	.	.	.
=104	=104	=104	=104	=104	=104	=104	=104	=104	=104	=104
!	!	!	!	!LO:LB:g=original	!	!	!	!	!	!
4D\	.	.	2.r	8ff#\L	4D\	.	2.r	.	.	.
.	.	.	.	8ee\	.	.	.	.	.	.
4d\	.	.	.	8ff#\	4d\	-men	.	.	.	.
.	.	.	.	8aa\	.	.	.	.	.	.
8B\L	.	.	.	8gg#X\	8B\L	a-	.	.	.	.
8G#X\J	.	.	.	8bb\J	8G#X\J	.	.	.	.	.
=105	=105	=105	=105	=105	=105	=105	=105	=105	=105	=105
!	!	!	!	!	!LO:LB:g=original	!	!	!	!	!
4A\	.	.	2.a/	2cc#\ 2ee	4A\	-men	2.a\	a-	.	.
8A\L	.	.	.	.	4r	.	.	.	.	.
8G#X\J	.	.	.	.	.	.	.	.	.	.
4A\	.	.	.	4r	4r	.	.	.	.	.
=106	=106	=106	=106	=106	=106	=106	=106	=106	=106	=106
!LO:LB:g=original	!	!	!	!LO:TX:a:t=6	!	!	!	!	!	!
4r	.	.	2.cc#\	0.r	4r	.	2.cc#\	.	0.r	0.r
*	*	*	*	*	*	*ij	*	*	*	*
8A\L	.	.	.	.	8A\L	a-	.	.	.	.
8G#X\J	.	.	.	.	8G#X\J	.	.	.	.	.
4A\	.	.	.	.	4A\	-men	.	.	.	.
=107	=107	=107	=107	=107	=107	=107	=107	=107	=107	=107
4r	.	.	2.ff#\	.	4r	.	2.ff#\	.	.	.
8A\L	.	.	.	.	8A\L	a-	.	.	.	.
8G#X\J	.	.	.	.	8G#X\J	.	.	.	.	.
4A\	.	.	.	.	4A\	-men	.	.	.	.
=108	=108	=108	=108	=108	=108	=108	=108	=108	=108	=108
4r	.	.	2.dd#X\	.	4r	.	2.dd#X\	-men	.	.
8A\L	x x 6	.	.	.	8A\L	a-	.	.	.	.
8G#X\J	.	.	.	.	8G#X\J	.	.	.	.	.
4A\	.	.	.	.	4A\	-men	.	.	.	.
=109	=109	=109	=109	=109	=109	=109	=109	=109	=109	=109
!	!	!	!LO:TX:t=P:problem:nadmiarowy takt w org i basso	!LO:TX:t=P:problem:nadmiarowy takt w org i basso	!	!	!LO:TX:t=P:problem:nadmiarowy takt w org i basso	!	!LO:TX:t=P:problem:nadmiarowy takt w org i basso	!LO:TX:t=P:problem:nadmiarowy takt w org i basso
4r	.	.	2.ryy	.	4r	.	2.ryy	.	.	.
8A\L	x 4\ 2	.	.	.	8A\L	a-	.	.	.	.
8G#X\J	.	.	.	.	8G#X\J	.	.	.	.	.
4A\	.	.	.	.	4A\	-men	.	.	.	.
*	*	*	*	*	*	*Xij	*	*	*	*
=110	=110	=110	=110	=110	=110	=110	=110	=110	=110	=110
!	!	!	!	!	!LO:SIC:v:s=2G#	!	!	!	!	!
2G#X\	x x 6	.	4e/	2.ryy	2G\	a-	4e/	a-	2.ryy	2.ryy
.	x x 5nr	.	4dd\	.	.	.	4ddn\	.	.	.
4A\	.	.	4cc#\	.	4A\	.	4cc#\	.	.	.
=111	=111	=111	=111	=111	=111	=111	=111	=111	=111	=111
4D\	x x 6	.	4b/	1.r	4D\	.	4b\	.	0.r	0.r
4E\	x 6 4	.	4a/	.	2E\	-men	4a\	.	.	.
4EE/	x 7 3#r	.	4g#X/	.	.	.	4g#X\	.	.	.
=112	=112	=112	=112	=112	=112	=112	=112	=112	=112	=112
!	!	!	!	!	!LO:LB:g=original	!	!	!	!	!
8C#/L	x x 6	.	4a/	.	8C#/L	a-	4a\	.	.	.
8AA/	.	.	.	.	8AA/J	.	.	.	.	.
8BB/	x x 6nr	.	4gg\	.	8BB/L	.	4gg\	-men	.	.
8D/	.	.	.	.	8D/	.	.	.	.	.
8C#/	x x 6	.	8ee\L	.	8C#/	.	8ee\L	a-	.	.
8E/J	.	.	8cc#\J	.	8E/J	.	8cc#\J	.	.	.
=113	=113	=113	=113	=113	=113	=113	=113	=113	=113	=113
!	!	!	!	!	!	!	!LO:LB:g=original	!	!	!
4D\	.	.	4dd\	2.dd\	4D/	-men	4dd\	-men	.	.
*	*	*	*	*	*	*	*	*ij	*	*
8d\L	.	.	8ff#\L	.	8d\L	a-	8ff#\L	a-	.	.
8c#\J	.	.	8ee\J	.	8c#\J	.	8ee\J	.	.	.
4d\	.	.	4ff#\	.	4d\	-men	4ff#\	-men	.	.
=114	=114	=114	=114	=114	=114	=114	=114	=114	=114	=114
!	!	!	!LO:LB:g=original	!	!	!	!	!	!	!
4r	.	.	4r	2.ff#\	4r	.	4r	.	.	.
8d\L	.	.	8a/L	.	8d\L	/a-	8a\L	a-	.	.
8c#\J	.	.	8b/J	.	8c#\J	.	8b\J	.	.	.
4d\	.	.	4a/	.	4d\	-men/	4a\	-men	.	.
=115	=115	=115	=115	=115	=115	=115	=115	=115	=115	=115
!LO:LB:g=original	!	!	!	!	!	!	!	!	!	!
4r	.	.	4r	2.bb\	4r	.	4r	.	1.r	1.r
8d\L	x x 6	.	8ff#\L	.	8d\L	/a-	8ff#\L	a-	.	.
8c#\J	.	.	8ee\J	.	8c#\J	.	8ee\J	.	.	.
4d\	.	.	4ff#\	.	4d\	-men/	4ff#\	-men	.	.
=116	=116	=116	=116	=116	=116	=116	=116	=116	=116	=116
4r	.	.	4r	2.aa#X\	4r	.	4r	.	.	.
8d\L	.	.	8b/L	.	8d\L	/a-	8b\L	a-	.	.
8c#\J	.	.	8a/J	.	8c#\J	.	8a\J	.	.	.
4d\	.	.	4b/	.	4d\	-men/	4b\	-men	.	.
*	*	*	*	*	*	*	*	*Xij	*	*
=117	=117	=117	=117	=117	=117	=117	=117	=117	=117	=117
2c#\	x x 6	.	4e/	4a/	2c#\	a-	4a\	a-	4D/	4A/
.	x x 5nr	.	2a/	4gg\	.	.	4ggn\	.	4e\	4g\
4d\	.	.	.	4ff#\	4d\	.	4ff#\	.	4d\	4f#\
=118	=118	=118	=118	=118	=118	=118	=118	=118	=118	=118
!	!	!	!	!	!LO:LB:g=original	!	!	!	!	!
4G\	x x 6	.	(8b/L	4ee\	4G\	.	4ee\	.	4A/	4e\
.	.	.	8a/J)	.	.	.	.	.	.	.
4A\	x 6 4	.	4f#/	4dd\	2A\	-men	4dd\	.	4F#/	4d\
4AA/	x 7 3#r	.	4e/	4cc#\	.	.	4cc#\	.	4AA/	4A/
=119	=119	=119	=119	=119	=119	=119	=119	=119	=119	=119
(8F#\L	x x 6	.	4a/	4dd\	(8F#\L	a-	4dd\	.	4F#/	4d\
8E\	.	.	.	.	8E\J)	.	.	.	.	.
8F#\)	.	.	4a/	4ddd\	(8F#\L	.	2dd\	-men	4A/	4e\
8A|\	.	.	.	.	8A\)	.	.	.	.	.
8G#X\	x x 6	.	4b/	8bb\L	(8G#X\	.	.	.	4A/	4e\
8B|\J	.	.	.	8gg#X\J	8B\J)	.	.	.	.	.
=120	=120	=120	=120	=120	=120	=120	=120	=120	=120	=120
!	!	!	!	!	!	!	!	!	!LO:LB:g=original	!
4A\	.	.	4r	4r	4A\	-men	4cc#\	a	4AA/ 4A	4A/
4r	.	.	8cc#\L	8aa\L	4r	.	4r	.	4r	4r
.	.	.	8b\J	8gg#X\J	.	.	.	.	.	.
4r	.	.	4cc#\	4aa\	4r	.	4r	.	4r	4r
=121	=121	=121	=121	=121	=121	=121	=121	=121	=121	=121
!	!	!	!	!	!	!	!LO:LB:g=original	!	!	!
!	!	!	!	!LO:LB:g=original	!LO:TX:a:t=3	!	!LO:TX:a:t=2	!	!	!
4F#\	x x 5	.	4r	4r	1.r	.	1.r	.	4f#\	4a\
4r	.	.	8cc#\L	8aa\L	.	.	.	.	4r	4r
.	.	.	8b\J	8gg#X\J	.	.	.	.	.	.
4r	.	.	4cc#\	4aa\	.	.	.	.	4r	4r
=122	=122	=122	=122	=122	=122	=122	=122	=122	=122	=122
4C#/	x x 6	.	4c#/ 4e 4a	4r	.	.	.	.	4f#\	4a\
4r	.	.	4r	8aa\L	.	.	.	.	4r	4r
.	.	.	.	8gg#X\J	.	.	.	.	.	.
4r	.	.	4r	4aa\	.	.	.	.	4r	4r
=123	=123	=123	=123	=123	=123	=123	=123	=123	=123	=123
!	!	!	!LO:LB:g=original	!	!	!	!	!	!	!
4D\	.	.	4r	4b\	2.r	.	4b\	a-	4f#\	4a\
4r	.	.	4f#/	4dd\	.	.	4dd\	.	4r	4r
!	!	!	!	!LO:SIC:v:s=4cc#	!	!	!	!	!	!
4r	.	.	4e/	4b\	.	.	4cc#\	.	4r	4r
=124	=124	=124	=124	=124	=124	=124	=124	=124	=124	=124
!	!	!	!	!	!	!	!	!	!LO:TX:a:t=2	!LO:TX:a:t=2
4D\	x x 6	.	4d/	4b/	4D/	a-	4b\	.	1.r	1.r
!	!	!	!	!	!LO:SIC:v:s=2E	!	!	!	!	!
4E\	x 6 4	.	4c#/	4a/	2F#\	.	4a\	.	.	.
4EE/	x 7 3#r	.	4B/	4g#X/	.	.	4g#X\	.	.	.
=125	=125	=125	=125	=125	=125	=125	=125	=125	=125	=125
!LO:LB:g=original	!	!	!	!	!	!	!	!	!	!
4A\	.	.	4r	4r	4A\	-men	4a\	-men	.	.
4r	.	.	8cc#\L	8aa\L	4r	.	4r	.	.	.
.	.	.	8b\J	8gg#X\J	.	.	.	.	.	.
4r	.	.	4cc#\	4aa\	4r	.	4r	.	.	.
=126	=126	=126	=126	=126	=126	=126	=126	=126	=126	=126
!	!	!	!	!	!LO:TX:a:t=3	!	!LO:TX:a:t=2	!	!	!
4F#\	x x 5	.	4r	4r	1.r	.	1.r	.	4f#\	4a\
4r	.	.	8cc#\L	8aa\L	.	.	.	.	4r	4r
.	.	.	8b\J	8gg#X\J	.	.	.	.	.	.
4r	.	.	4cc#\	4aa\	.	.	.	.	4r	4r
=127	=127	=127	=127	=127	=127	=127	=127	=127	=127	=127
4C#/	x x 6	.	4c#/ 4e 4a	4r	.	.	.	.	4f#\	4a\
4r	.	.	4r	8aa\L	.	.	.	.	4r	4r
.	.	.	.	8gg#X\J	.	.	.	.	.	.
4r	.	.	4r	4aa\	.	.	.	.	4r	4r
=128	=128	=128	=128	=128	=128	=128	=128	=128	=128	=128
4D\	x x 6	.	4f#/	4dd\|	2.r	.	4b\	a-	4f#\	4a\
4r	.	.	4dd\	4ff#\|	.	.	4ff#\	.	4r	4r
4r	.	.	4cc#\	4ee\|	.	.	4ee\	.	4r	4r
=129	=129	=129	=129	=129	=129	=129	=129	=129	=129	=129
!	!	!	!	!	!	!	!	!	!LO:TX:a:t=1	!LO:TX:a:t=1
4D\	x x 6	.	4b/	4dd\	4D\	a-	4dd\	.	2.r	2.r
4E\	x 6 4	.	4a/	4cc#\	2E\	.	4cc#\	.	.	.
4EE/	x 7 3#r	.	4g#X/	4b\	.	.	4b\	.	.	.
=130	=130	=130	=130	=130	=130	=130	=130	=130	=130	=130
4AA/	.	.	(8cc#\L	(8cc#\L	4AA/	-men	4a\	-men	4F#/	4d\
.	.	.	8ee\	8ee\	.	.	.	.	.	.
4C#/	.	.	8aa\)	8aa\)	4r	.	4r	.	4A/	4e\
.	.	.	8ee\	8ee|\	.	.	.	.	.	.
4AA/	.	.	8cc#\	8cc#|\	4r	.	4r	.	4A/	4e\
.	.	.	8ee\J	8ee|\J	.	.	.	.	.	.
=131	=131	=131	=131	=131	=131	=131	=131	=131	=131	=131
!	!	!	!	!	!LO:TX:a:t=14	!	!LO:TX:a:t=7	!	!	!LO:LB:g=original
4D\	.	.	(8dd\L	(8dd\L	0.r	.	0.r	.	4f#\	4a\
.	.	.	8ff#\	8ff#\)	.	.	.	.	.	.
2E\	x 6 4	.	8cc#\	(8cc#\	.	.	.	.	4r	4r
.	x 7 3#r	.	8ee\	8ee\)	.	.	.	.	.	.
.	.	.	8b\	(8b\	.	.	.	.	4r	4r
.	.	.	8dd\J)	8dd\J)	.	.	.	.	.	.
=132	=132	=132	=132	=132	=132	=132	=132	=132	=132	=132
!	!	!	!LO:LB:g=original	!	!	!	!	!	!LO:TX:a:t=6	!LO:TX:a:t=6
4A\	.	.	(8cc#\L	(8cc#\L	.	.	.	.	0.r	0.r
.	.	.	8ee\	8ee\	.	.	.	.	.	.
4C#/	.	.	8aa\	8aa\)	.	.	.	.	.	.
.	.	.	8ee\	8ee|\	.	.	.	.	.	.
4AA/	.	.	8cc#\	8cc#|\	.	.	.	.	.	.
.	.	.	8ee\J)	8ee|\J	.	.	.	.	.	.
=133	=133	=133	=133	=133	=133	=133	=133	=133	=133	=133
4D\	.	.	(8dd\L	(8b\L	.	.	.	.	.	.
.	.	.	8ff#\	8dd\	.	.	.	.	.	.
2E\	x 6 4	.	8cc#\	8a\	.	.	.	.	.	.
.	x 7 3#r	.	8ee\	8cc#\)	.	.	.	.	.	.
.	.	.	8b\	8g#X|\	.	.	.	.	.	.
.	.	.	8dd\J)	8b|\J	.	.	.	.	.	.
=134	=134	=134	=134	=134	=134	=134	=134	=134	=134	=134
4AA/	.	.	(8cc#\L	(8cc#\L	.	.	.	.	.	.
.	.	.	8ee\	8ee\	.	.	.	.	.	.
4C#/	.	.	8aa\	8aa\)	.	.	.	.	.	.
.	.	.	8ee\	8ee|\	.	.	.	.	.	.
4AA/	.	.	8cc#\	8cc#|\	.	.	.	.	.	.
.	.	.	8ee\J)	8ee|\J	.	.	.	.	.	.
=135	=135	=135	=135	=135	=135	=135	=135	=135	=135	=135
!	!	!	!	!LO:LB:g=original	!	!	!	!	!	!
4D\	.	.	(8dd\L	(8dd\L	0.r	.	1.r	.	.	.
.	.	.	8ff#\	8ff#\	.	.	.	.	.	.
2E\	x 6 4	.	8cc#\	8cc#\	.	.	.	.	.	.
.	x 7 3#r	.	8ee\	8ee\)	.	.	.	.	.	.
.	.	.	8b\	8b|\	.	.	.	.	.	.
.	.	.	8dd\J)	8dd|\J	.	.	.	.	.	.
=136	=136	=136	=136	=136	=136	=136	=136	=136	=136	=136
4A\	.	.	(8cc#\L	(8cc#\L	.	.	.	.	1.r	1.r
.	.	.	8ee\	8ee\	.	.	.	.	.	.
4C#/	.	.	8aa\	8aa\)	.	.	.	.	.	.
.	.	.	8ee\	8ee|\	.	.	.	.	.	.
4AA/	.	.	8cc#\	8cc#|\	.	.	.	.	.	.
.	.	.	8ee\J)	8ee|\J	.	.	.	.	.	.
=137	=137	=137	=137	=137	=137	=137	=137	=137	=137	=137
!LO:LB:g=original	!	!	!	!	!	!	!	!	!	!
4D\	x x 6	.	8b\L	(8b\L	.	.	2.r	.	.	.
.	.	.	8dd\	8dd\	.	.	.	.	.	.
2E\	x 6 4	.	8a\	8a\)	.	.	.	.	.	.
.	x 7 3#r	.	8cc#\	8cc#|\	.	.	.	.	.	.
.	.	.	8g#X\	8g#X|\	.	.	.	.	.	.
.	.	.	8b\J	8b|\J	.	.	.	.	.	.
=138	=138	=138	=138	=138	=138	=138	=138	=138	=138	=138
!	!	!	!	!	!	!	!	!	!LO:LB:g=original	!
4AA/	.	.	4a/	2.a/	.	.	2.a\	a-	4F#/	4d\
8A\L	.	.	8c#/L	.	.	.	.	.	4A/	4e\
8G#X\J	.	.	8B/J	.	.	.	.	.	.	.
4A\	.	.	4c#/	.	.	.	.	.	4A/	4e\
=139	=139	=139	=139	=139	=139	=139	=139	=139	=139	=139
!	!	!	!LO:LB:g=original	!	!	!	!	!	!	!
4r	.	.	4r	2.cc#\	0.r	.	2.cc#\	.	4AA/	4A/
8A\L	.	.	8e/L	.	.	.	.	.	4r	4r
!	!	!	!LO:SIC:v:s=8g#	!	!	!	!	!	!	!
8G#X\J	.	.	8f#/J	.	.	.	.	.	.	.
4A\	.	.	4e/	.	.	.	.	.	4r	4r
=140	=140	=140	=140	=140	=140	=140	=140	=140	=140	=140
!	!	!	!	!	!	!	!LO:LB:g=original	!	!LO:TX:a:t=6	!LO:TX:a:t=6
4r	.	.	4r	2.ff#\	.	.	2.ff#\	.	0.r	0.r
8A\L	x x 6	.	8cc#\L	.	.	.	.	.	.	.
8G#X\J	.	.	8b\J	.	.	.	.	.	.	.
4A\	.	.	4cc#\	.	.	.	.	.	.	.
=141	=141	=141	=141	=141	=141	=141	=141	=141	=141	=141
4r	.	.	4r	2.dd#X\	.	.	2.dd#X\	-men	.	.
8A\L	x 4\ 2	.	8f#/L	.	.	.	.	.	.	.
8G#X\J	.	.	8e/J	.	.	.	.	.	.	.
4A\	.	.	4f#/	.	.	.	.	.	.	.
=142	=142	=142	=142	=142	=142	=142	=142	=142	=142	=142
2G#X\	x x 6	.	2b/	4e/	.	.	4e/	a-	.	.
.	x x 5nr	.	.	4ddn\	.	.	4ddn\	.	.	.
4A\	.	.	4a/	4cc#\	.	.	4cc#\	.	.	.
=143	=143	=143	=143	=143	=143	=143	=143	=143	=143	=143
4D\	x x 6	.	8f#/L	4b/	1.r	.	4b\	.	.	.
.	.	.	8d/J	.	.	.	.	.	.	.
4E\	x 6 4	.	4c#/	4a/	.	.	4a\	.	.	.
4EE/	x 7 3#r	.	4B/	4g#X/	.	.	4g#X\	.	.	.
=144	=144	=144	=144	=144	=144	=144	=144	=144	=144	=144
!	!	!	!	!LO:LB:g=original	!	!	!	!	!	!
(8C#/L	x x 6	.	8e/L	4a/	.	.	4a\	-men	1.r	1.r
8AA/	.	.	8c#/J	.	.	.	.	.	.	.
8BB/)	.	.	4d/	4ggn\	.	.	4ggn\	a-	.	.
8D|/	x x 6nr	.	.	.	.	.	.	.	.	.
8C#|/	.	.	8e/L	8ee\L	.	.	8ee\L	.	.	.
8E|/J	x x 6	.	8g/J	8cc#\J	.	.	8cc#\J	.	.	.
=145	=145	=145	=145	=145	=145	=145	=145	=145	=145	=145
!LO:TX:t=P:problem:zbędny takt cor 1 i cor 2	!	!	!LO:TX:t=P:problem:zbędny takt cor 1 i cor 2	!LO:TX:t=P:problem:zbędny takt cor 1 i cor 2	!LO:TX:t=P:problem:zbędny takt cor 1 i cor 2	!	!LO:TX:t=P:problem:zbędny takt cor 1 i cor 2	!	!LO:TX:t=P:problem:zbędny takt	!LO:TX:t=P:problem:zbędny takt
2.ryy	.	.	2.ryy	2.ryy	2.ryy	.	2.ryy	.	.	.
=146	=146	=146	=146	=146	=146	=146	=146	=146	=146	=146
2.D\	.	.	4f#/	4r	2.D\	a-	4dd\	-men	4d\	4f#\
*	*	*	*	*	*	*	*	*ij	*	*
.	.	.	8f#/L	8dd\L	.	.	8dd\L	a-	4r	4r
.	.	.	8e/J	8cc#\J	.	.	8cc#\J	.	.	.
.	.	.	4f#/	4dd\	.	.	4dd\	-men	4r	4r
=147	=147	=147	=147	=147	=147	=147	=147	=147	=147	=147
2.F#\	x x 6	.	4r	4r	2.F#\	.	4r	.	4d\	4f#\
.	.	.	8f#/L	8dd\L	.	.	8dd\L	a-	4r	4r
.	.	.	8e/J	8cc#\J	.	.	8cc#\J	.	.	.
.	.	.	4f#/	4dd\	.	.	4dd\	-men	4r	4r
=148	=148	=148	=148	=148	=148	=148	=148	=148	=148	=148
!LO:LB:g=original	!	!	!LO:LB:g=original	!	!	!	!	!	!	!
2.B\	x x 5	.	4r	4r	2.B\	.	4r	.	4d\	4f#\
.	.	.	8f#/L	8dd\L	.	.	8dd\L	a-	4r	4r
.	.	.	8e/J	8cc#\J	.	.	8cc#\J	.	.	.
.	.	.	4f#/	4dd\	.	.	4dd\	-men	4r	4r
=149	=149	=149	=149	=149	=149	=149	=149	=149	=149	=149
!	!	!	!	!	!	!	!LO:LB:g=original	!	!	!
2.G#X\	x 7 5	.	8f#/L	4r	2.G#X\	-men	4r	.	4A/	4e\
.	x 6 5	.	8d/J	.	.	.	.	.	.	.
.	.	.	2e/	8dd\L	.	.	8dd\L	a-	4r	4r
.	.	.	.	8cc#\J	.	.	8cc#\J	.	.	.
.	.	.	.	4dd\	.	.	4dd\	-men	4r	4r
*	*	*	*	*	*	*	*	*Xij	*	*
=150	=150	=150	=150	=150	=150	=150	=150	=150	=150	=150
4AA/	.	.	4e/	8cc#\L	4AA/	a-	4cc#\	a-	4A/	4e\
.	.	.	.	8a\	.	.	.	.	.	.
4Gn\	x x 2	.	4cc#\	8dd\	4Gn\	.	4ee\	.	4A/	4e\
.	.	.	.	8a\	.	.	.	.	.	.
4F#\	x x 6	.	4dd\	8ff#\	4F#\	.	4ff#\	.	4d\	4f#\
.	.	.	.	8a\J	.	.	.	.	.	.
=151	=151	=151	=151	=151	=151	=151	=151	=151	=151	=151
!	!	!	!	!	!	!	!	!	!	!LO:LB:g=original
4E\	x x 6	.	8cc#\L	8gg\L	4E\	.	4gg\	.	4e\	4g\
.	.	.	8a\	8a\	.	.	.	.	.	.
4D\	x x 3	.	8dd\	8ff#\	4D\	.	4ff#\	.	4d\	4f#\
.	.	.	8a\	8a\	.	.	.	.	.	.
4C#/	x 6 5	.	8g\	8ee\	4C#\	.	4ee\	.	4A/	4e\
.	.	.	8a\J	8a\J	.	.	.	.	.	.
=152	=152	=152	=152	=152	=152	=152	=152	=152	=152	=152
*	*	*	*^	*	*	*	*	*	*	*
!	!	!	!	!	!LO:LB:g=original	!	!	!	!	!	!
4D\	.	.	2a/	2f#\	(8ff#\L	4D\	men	4ff#\	-men	4d\	4f#\
.	.	.	.	.	8ee\	.	.	.	.	.	.
4d\	.	.	.	.	8ff#\	4d\	.	(8f#/L	a-	4d\	4f#\
.	.	.	.	.	8aa\)	.	.	8a/J)	.	.	.
8B\L	x x 6\	.	4dd\	4ryy	8gg#X|\	8B\L	a-	(8g#X\L	.	4e\	4g#X\
8G#X\J	.	.	.	.	8bb|\J	8G#X\J	.	8b\J)	.	.	.
*	*	*	*v	*v	*	*	*	*	*	*	*
=153	=153	=153	=153	=153	=153	=153	=153	=153	=153	=153
!LO:TX:t=P:problem:nadmiarowy takt w cor 2	!	!	!LO:TX:t=P:problem:nadmiarowy takt w cor 2	!LO:TX:t=P:problem:nadmiarowy takt w cor 2	!LO:TX:t=P:problem:nadmiarowy takt w cor 2	!	!LO:TX:t=P:problem:nadmiarowy takt w cor 2	!	!LO:LB:g=original	!LO:TX:t=P:problem:nadmiarowy takt w cor 2
2.ryy	.	.	2.ryy	2.ryy	2.ryy	.	2.ryy	.	4F#/	2.ryy
.	.	.	.	.	.	.	.	.	4r	.
.	.	.	.	.	.	.	.	.	4r	.
=154	=154	=154	=154	=154	=154	=154	=154	=154	=154	=154
4A\	.	.	4cc#\	2aa\	4A\	-men	4cc#\	-men	4f#\	4a\
4c#\	x x 6	.	4ee\	.	4c#\	.	4ee\	.	4r	4r
4d\	x x 6	.	4ff#\	8bb\L	4d\	a-	4ff#\	a-	4r	4r
.	.	.	.	8gg#X\J	.	.	.	.	.	.
=155	=155	=155	=155	=155	=155	=155	=155	=155	=155	=155
4c#\	x x 6	.	4ee\	2aa\	4c#\	.	4ee\	.	4f#\	4a\
4A\	.	.	4cc#\	.	4A\	.	4cc#\	.	4r	4r
4d\	x x 6	.	4ff#\	8bb\L	4d\	.	4ff#\	.	4r	4r
.	.	.	.	8gg#X\J	.	.	.	.	.	.
=156	=156	=156	=156	=156	=156	=156	=156	=156	=156	=156
!	!	!	!	!	!LO:LB:g=original	!	!	!	!	!
4c#\	x x 6	.	4ee\	2aa\	4c#\	.	4ee\	.	4f#\	4a\
4A\	.	.	4cc#\	.	4A\	.	4cc#\	.	4r	4r
4d\	x x 6	.	4ff#\	8bb\L	4d\	.	4ff#\	.	4r	4r
.	.	.	.	8gg#X\J	.	.	.	.	.	.
=157	=157	=157	=157	=157	=157	=157	=157	=157	=157	=157
!	!	!	!	!	!	!	!LO:LB:g=original	!	!	!
4c#\	x x 6	.	4ee\	4aa\	4c#\	.	4ee\	.	4f#\	4a\
4A\	.	.	4cc#\	4a/	4A\	-men	4cc#\	-men	4r	4r
4r	.	.	4r	4r	4r	.	4r	.	4r	4r
=158	=158	=158	=158	=158	=158	=158	=158	=158	=158	=158
!	!	!	!LO:LB:g=original	!	!	!	!	!	!	!
4F#\	x x 5	.	4a\	2ff#\	4F#\	a-	4a\	a-	4d\	4f#\
4A\	x x 6	.	4cc#\	.	4A\	.	4cc#\	.	4r	4r
4B\	x x 6nr	.	4dd\	8ggn\L	4B\	.	4cc#\	.	4r	4r
.	.	.	.	8ee\J	.	.	.	.	.	.
=159	=159	=159	=159	=159	=159	=159	=159	=159	=159	=159
!LO:LB:g=original	!	!	!	!	!	!	!	!	!	!
4A\	x x 6	.	4cc#\	2ff#\	4B\	.	4cc#\	.	4d\	4f#\
4F#\	.	.	4a\	.	4F#\	.	4a\	.	4r	4r
4B\	x x 6	.	4dd\	8gg\L	4B\	.	4dd\	.	4r	4r
.	.	.	.	8ee#X\J	.	.	.	.	.	.
=160	=160	=160	=160	=160	=160	=160	=160	=160	=160	=160
4A\	x x 6	.	4cc#\	2ff#\	4A\	.	4cc#\	.	4d\	4f#\
4F#\	.	.	4a\	.	4F#\	.	4a\	.	4r	4r
4B\	x x 6	.	4dd\	8gg\L	4A\	.	4dd\	.	4r	4r
.	.	.	.	8ee#X\J	.	.	.	.	.	.
=161	=161	=161	=161	=161	=161	=161	=161	=161	=161	=161
!	!	!	!	!LO:LB:g=original	!	!	!	!	!	!
4A\	x x 6	.	4cc#\	4ff#\	4A\	.	4cc#\	.	4d\	4f#\
4F#\	.	.	4a\	4f#/	4F#\	-men	4a\	-men	4r	4r
4r	.	.	4r	4r	4r	.	4r	.	4r	4r
=162	=162	=162	=162	=162	=162	=162	=162	=162	=162	=162
!	!	!	!	!	!	!	!	!	!	!LO:LB:g=original
4D\	x x 5	.	4f#/	2dd\	4D\	a-	4f#/	a-	4G/	4d\
4F#\	x x 6	.	4a/	.	4F#\	.	4a/	.	4r	4r
4G\	x x 6	.	4b/	8ee\L	4G\	.	4b\	.	4r	4r
.	.	.	.	8cc#\J	.	.	.	.	.	.
=163	=163	=163	=163	=163	=163	=163	=163	=163	=163	=163
!	!	!	!	!	!	!	!	!	!LO:LB:g=original	!
4F#\	x x 6	.	4a/	2dd\	4F#\	.	4a\	.	4F#/	4d\
4D\	.	.	4f#/	.	4D\	.	4f#/	.	4r	4r
4G\	x x 6	.	4b/	8ee\L	4G\	.	4b\	.	4r	4r
.	.	.	.	8cc#\J	.	.	.	.	.	.
=164	=164	=164	=164	=164	=164	=164	=164	=164	=164	=164
!	!	!	!	!	!LO:LB:g=original	!	!LO:LB:g=original	!	!	!
4F#\	x x 6	.	4a/	2dd\	4F#\	.	4a\	.	4F#/	4d\
4D\	.	.	4f#/	.	4D\	.	4f#/	.	4r	4r
4G\	x x 6	.	4b/	8ee\L	4F#\	.	4b\	.	4r	4r
.	.	.	.	8cc#\J	.	.	.	.	.	.
=165	=165	=165	=165	=165	=165	=165	=165	=165	=165	=165
!LO:TX:t=P:problem:nadmiarowy takt w Basso	!	!	!LO:TX:t=P:problem:nadmiarowy takt w Basso	!LO:TX:t=P:problem:nadmiarowy takt w Basso	!	!	!LO:TX:t=P:problem:nadmiarowy takt w Basso	!	!LO:TX:t=P:problem:nadmiarowy takt w Basso	!LO:TX:t=P:problem:nadmiarowy takt w Basso
2.ryy	.	.	2.ryy	2.ryy	4F#\	.	2.ryy	.	2.ryy	2.ryy
.	.	.	.	.	4D\	.	.	.	.	.
.	.	.	.	.	4G\	.	.	.	.	.
=166	=166	=166	=166	=166	=166	=166	=166	=166	=166	=166
4F#\	x x 6	.	4a/	4dd\	4F#\	.	4a\	.	4F#/	4d\
4D\	.	.	4f#/	4ff#\	4D\	-men	4f#\	-men	4d\	4f#\
4r	.	.	4r	4aa\	4r	.	4r	.	4f#\	4a\
=167	=167	=167	=167	=167	=167	=167	=167	=167	=167	=167
4F#\	x x 6	.	4aa\	8ddd\L	2.F#\	a-	2.a\	a-	2.f#\	2.a\
.	.	.	.	8ccc#\	.	.	.	.	.	.
4r	.	.	4r	8bb\	.	.	.	.	.	.
.	.	.	.	8aa\	.	.	.	.	.	.
4r	.	.	4r	8gg\	.	.	.	.	.	.
.	.	.	.	8ff#\J	.	.	.	.	.	.
=168	=168	=168	=168	=168	=168	=168	=168	=168	=168	=168
4G\	x x 5	.	4dd\	8bb\L	2.G\	.	2.b\	.	2.g\	2.b\
.	.	.	.	8aa\	.	.	.	.	.	.
4r	.	.	4r	8gg\	.	.	.	.	.	.
.	.	.	.	8ff#\	.	.	.	.	.	.
4r	.	.	4r	8ee\	.	.	.	.	.	.
.	.	.	.	8dd\J	.	.	.	.	.	.
=169	=169	=169	=169	=169	=169	=169	=169	=169	=169	=169
!	!	!	!LO:LB:g=original	!	!	!	!	!	!	!LO:SIC:v:s=2.g\
4E\	x x 6	.	4gg\	8ccc#\L	2.E\	.	2.g\	.	2.d\	2.f#\
.	.	.	.	8bb\	.	.	.	.	.	.
4r	.	.	4r	8aa\	.	.	.	.	.	.
.	.	.	.	8gg\	.	.	.	.	.	.
4r	.	.	4r	8ff#\	.	.	.	.	.	.
.	.	.	.	8ee\J	.	.	.	.	.	.
=170	=170	=170	=170	=170	=170	=170	=170	=170	=170	=170
4F#\	x x 5	.	4cc#\	8aa\L	2.F#\	.	2.a\	.	2.f#\	2.a\
.	.	.	.	8gg\	.	.	.	.	.	.
4r	.	.	4r	8ff#\	.	.	.	.	.	.
.	.	.	.	8ee\	.	.	.	.	.	.
4r	.	.	4r	8dd\	.	.	.	.	.	.
.	.	.	.	8cc#\J	.	.	.	.	.	.
=171	=171	=171	=171	=171	=171	=171	=171	=171	=171	=171
!LO:LB:g=original	!	!	!	!LO:LB:g=original	!	!	!	!	!	!
4D\	x x 6	.	4ff#\	8bb\L	2.D\	.	2.f#/	.	2.d\	2.f#\
.	.	.	.	8aa\	.	.	.	.	.	.
4r	.	.	4r	8gg\	.	.	.	.	.	.
.	.	.	.	8ff#\	.	.	.	.	.	.
4r	.	.	4r	8ee\	.	.	.	.	.	.
.	.	.	.	8dd\J	.	.	.	.	.	.
=172	=172	=172	=172	=172	=172	=172	=172	=172	=172	=172
4E\	x x 5	.	4b\	8gg\L	2.E\	.	2.g\	men	2.e\	2.g\
.	.	.	.	8ff#\	.	.	.	.	.	.
4r	.	.	4r	8ee\	.	.	.	.	.	.
.	.	.	.	8dd\	.	.	.	.	.	.
4r	.	.	4r	8cc#\	.	.	.	.	.	.
.	.	.	.	8b\J	.	.	.	.	.	.
=173	=173	=173	=173	=173	=173	=173	=173	=173	=173	=173
!	!	!	!	!	!	!	!	!	!LO:TX:a:t=2	!LO:TX:a:t=2
4A\	.	.	4a\	4a/	4A\	.	4a\	a-	1.r	1.r
4G\	.	.	4ee\	4ccc#\	4G\	.	4cc#\	.	.	.
4F#\	x x 6	.	4ff#\	4ddd\	4F#\	-men	4cc#\	-men	.	.
=174	=174	=174	=174	=174	=174	=174	=174	=174	=174	=174
!LO:TX:a:t=1	!	!	!LO:TX:a:t=1	!LO:TX:a:t=1	!LO:LB:g=original	!	!LO:TX:a:t=1	!	!	!
2.r	.	.	2.r	2.r	2.r	.	2.r	.	.	.
=175	=175	=175	=175	=175	=175	=175	=175	=175	=175	=175
4G\	x x 6	.	8ee\L	8gg\L	4G\	a-	4b\	a-	4e\	4g\
.	.	.	8gg\	8bb\	.	.	.	.	.	.
2A\	x 6 4	.	8ff#\	8aa\	2A\	.	4dd\	.	4d\	4f#\
.	x 7 3	.	8dd\	8ff#\	.	.	.	.	.	.
.	.	.	8ee\	8gg\	.	.	4cc#\	.	4A/	4e\
.	.	.	8cc#\J	8ee\J	.	.	.	.	.	.
=176	=176	=176	=176	=176	=176	=176	=176	=176	=176	=176
!	!	!	!	!	!	!	!LO:LB:g=original	!	!	!LO:LB:g=original
.	.	.	.	8qqee/	.	.	.	.	.	.
4D\	.	.	2.dd\	2.ff#\	2D/	-men	2b\	-men	4d\	4f#\
4F#\	.	.	.	.	.	.	.	.	4r	4r
4A\	.	.	.	.	4r	.	4r	.	4r	4r
=177	=177	=177	=177	=177	=177	=177	=177	=177	=177	=177
!	!	!	!	!	!	!	!	!	!LO:TX:a:t=8	!LO:TX:a:t=6
8d\L	.	.	4ff#\	4aa\	2.F#\	a-	2.a\	a-	0.r	0.r
8c#\	.	.	.	.	.	.	.	.	.	.
8B\	.	.	4r	4r	.	.	.	.	.	.
8A\	.	.	.	.	.	.	.	.	.	.
8G\	.	.	4r	4r	.	.	.	.	.	.
8F#\J	.	.	.	.	.	.	.	.	.	.
=178	=178	=178	=178	=178	=178	=178	=178	=178	=178	=178
8B\L	x x 6	.	4gg\	4bb\	2.G\	.	2.b\	.	.	.
8A\	.	.	.	.	.	.	.	.	.	.
8G\	.	.	4r	4r	.	.	.	.	.	.
8F#\	.	.	.	.	.	.	.	.	.	.
8E\	.	.	4r	4r	.	.	.	.	.	.
8D\J	.	.	.	.	.	.	.	.	.	.
=179	=179	=179	=179	=179	=179	=179	=179	=179	=179	=179
8c#\L	x x 5	.	4ee\	4gg\	2.E\	.	2.g\	.	.	.
8B\	.	.	.	.	.	.	.	.	.	.
8A\	.	.	4r	4r	.	.	.	.	.	.
8G\	.	.	.	.	.	.	.	.	.	.
8F#\	.	.	4r	4r	.	.	.	.	.	.
8E\J	.	.	.	.	.	.	.	.	.	.
=180	=180	=180	=180	=180	=180	=180	=180	=180	=180	=180
!	!	!	!LO:LB:g=original	!	!	!	!	!	!	!
8A\L	x x 6	.	4ff#\	4aa\	2.F#\	.	2.a\	.	.	.
8G\	.	.	.	.	.	.	.	.	.	.
8F#\	.	.	4r	4r	.	.	.	.	.	.
8E\	.	.	.	.	.	.	.	.	.	.
8D\	.	.	4r	4r	.	.	.	.	.	.
8C#\J	.	.	.	.	.	.	.	.	.	.
=181	=181	=181	=181	=181	=181	=181	=181	=181	=181	=181
!LO:LB:g=original	!	!	!	!LO:LB:g=original	!	!	!	!	!	!
8B\L	x x 5	.	4dd\	4ff#\	2.D\	.	2.f#/	.	0.r	1.r
8A\	.	.	.	.	.	.	.	.	.	.
8G\	.	.	4r	4r	.	.	.	.	.	.
8F#\	.	.	.	.	.	.	.	.	.	.
8E\	.	.	4r	4r	.	.	.	.	.	.
8D\J	.	.	.	.	.	.	.	.	.	.
=182	=182	=182	=182	=182	=182	=182	=182	=182	=182	=182
8G\L	x x 6	.	4ee\	4gg\	2.E\	.	2.g/	.	.	.
8F#\	.	.	.	.	.	.	.	.	.	.
8E\	.	.	4r	4r	.	.	.	.	.	.
8D\	.	.	.	.	.	.	.	.	.	.
8C#\	.	.	4r	4r	.	.	.	.	.	.
8BB\J	.	.	.	.	.	.	.	.	.	.
=183	=183	=183	=183	=183	=183	=183	=183	=183	=183	=183
!	!	!	!	!	!	!	!	!	!	!LO:TX:t=P:problem:brakujące 2 takty pauz
4AA/	.	.	4r	4r	2E\	.	2a/	.	.	2.ryy
(4c#\	x 6 5	.	4ee\	4gg\	.	.	.	.	.	.
4d\)	x x 3	.	4dd\	4ff#\	4D\	-men	8g/L	men	.	.
.	.	.	.	.	.	.	8f#/J	.	.	.
=184	=184	=184	=184	=184	=184	=184	=184	=184	=184	=184
!	!	!	!	!	!	!	!LO:TX:a:t=1	!	!	!
2.r	.	.	2.r	2.r	2.r	.	2.r	.	.	2.ryy
=185	=185	=185	=185	=185	=185	=185	=185	=185	=185	=185
4G\	x x 6	.	8ee\L	8gg\L	4G\	a-	4b\	a-	4e\	4g\
.	.	.	8gg\	8bb\	.	.	.	.	.	.
4A\	x 6 4	.	8ff#\	8aa\	4A\	.	4dd\	.	4d\	4f#\
.	.	.	8dd\	8ff#\	.	.	.	.	.	.
4AA/	x 7 3	.	8ee\	8gg\	4AA/	.	4cc#\	.	4A/	4e\
.	.	.	8cc#\J	8ee\J	.	.	.	.	.	.
=186	=186	=186	=186	=186	=186	=186	=186	=186	=186	=186
!	!	!	!	!	!LO:LB:g=original	!	!	!	!	!
2.D\	x x 3	.	2.d/	2.dd\	2D/	-men	2ee\	-men	2.F#/	2.d\
.	.	.	.	.	4r	.	4r	.	.	.
=187	=187	=187	=187	=187	=187	=187	=187	=187	=187	=187
!LO:TX:b:t=uni ſso:	!	!	!	!	!LO:TX:a:t=5	!	!LO:TX:a:t=5	!	!	!
2.F#\	.	.	2.f#/	2.ff#\	0.r	.	0.r	.	2.A/	2.e\
=188	=188	=188	=188	=188	=188	=188	=188	=188	=188	=188
!	!	!	!	!	!	!	!	!	!LO:TX:a:t=4	!LO:TX:a:t=4
2.B\	.	.	2.b/	2.bb\	.	.	.	.	0.r	0.r
=189	=189	=189	=189	=189	=189	=189	=189	=189	=189	=189
2.G#X\	.	.	2.g#X/	2.gg#X\	.	.	.	.	.	.
=190	=190	=190	=190	=190	=190	=190	=190	=190	=190	=190
4AA|/	.	.	4A/	4a/	.	.	.	.	.	.
4Gn|\	.	.	4gn/	4ggn\	.	.	.	.	.	.
4F#|\	.	.	4f#/	4ff#\	.	.	.	.	.	.
=191	=191	=191	=191	=191	=191	=191	=191	=191	=191	=191
4E|\	.	.	4e/	4ee\	2.r	.	2.r	.	.	.
4D|\	.	.	4d/	4dd\	.	.	.	.	.	.
4C#|\	.	.	4c#/	4cc#\	.	.	.	.	.	.
=192	=192	=192	=192	=192	=192	=192	=192	=192	=192	=192
!	!	!	!LO:LB:g=original	!	!	!	!LO:LB:g=original	!	!	!
4D\	.	.	4d/	4dd\	4D/	a-	4dd\	a-	4d\	4f#\
4r	.	.	8ff#\L	8ddd\L	4r	.	4r	.	4r	4r
.	.	.	8ee\J	8ccc#\J	.	.	.	.	.	.
4r	.	.	4ff#\	4ddd\	4r	.	4r	.	4r	4r
=193	=193	=193	=193	=193	=193	=193	=193	=193	=193	=193
!LO:LB:g=original	!	!	!	!LO:LB:g=original	!	!	!	!	!	!
4B\	x x 3	.	4r	4r	4B\	-men	4dd\	-men	4f#\	4f#\
4r	.	.	8ff#\L	8ddd\L	4r	.	4r	.	4r	4r
.	.	.	8ee\J	8ccc#\J	.	.	.	.	.	.
4r	.	.	4ff#\	4ddd\	4r	.	4r	.	4r	4r
=194	=194	=194	=194	=194	=194	=194	=194	=194	=194	=194
4F#\	x x 6	.	4d/ 4a 4ff#	4r	4F#\	a-	4cc#\	a-	4f#\	4f#\
4r	.	.	4r	8ddd\L	4r	.	4r	.	4r	4r
.	.	.	.	8ccc#\J	.	.	.	.	.	.
4r	.	.	4r	4ddd\	4r	.	4r	.	4r	4r
=195	=195	=195	=195	=195	=195	=195	=195	=195	=195	=195
4G\	x x 6	.	4r	4r	4G\	-men	4ee\	-men	4f#\	4f#\
4r	.	.	4b/	4gg\	4r	.	4gg\	a-	4r	4r
4r	.	.	4a/	4ff#\	4r	.	4ff#\	.	4r	4r
=196	=196	=196	=196	=196	=196	=196	=196	=196	=196	=196
4G\	x x 6	.	4g/	4ee\	4G\	a-	4ee\	.	4e\	4g\
2A\	x 6 4	.	4f#/	4dd\	2A\	.	4dd\	.	4d\	4f#\
.	x 7 3	.	4e/	4cc#\	.	.	4cc#\	.	4A/	4e\
=197	=197	=197	=197	=197	=197	=197	=197	=197	=197	=197
!	!	!	!	!	!	!	!	!	!	!LO:LB:g=original
4d\	.	.	4r	4r	4d\	-men	4dd\	-men	4d\	4f#\
4r	.	.	8ff#\L	8ddd\L	4r	.	4r	.	4r	4r
.	.	.	8ee\J	8ccc#\J	.	.	.	.	.	.
4r	.	.	4ff#\	4ddd\	4r	.	4r	.	4r	4r
=198	=198	=198	=198	=198	=198	=198	=198	=198	=198	=198
4B\	x x 5	.	4r	4r	4B\	a-	4dd\	a-	4d\	4f#\
4r	.	.	8ff#\L	8ddd\L	4r	.	4r	.	4r	4r
.	.	.	8ee\J	8ccc#\J	.	.	.	.	.	.
4r	.	.	4ff#\	4ddd\	4r	.	4r	.	4r	4r
=199	=199	=199	=199	=199	=199	=199	=199	=199	=199	=199
!	!	!	!	!	!LO:LB:g=original	!	!	!	!LO:LB:g=original	!
4F#\	x x 6	.	4d/ 4a 4ff#	4r	4F#\	-men	4dd\	-men	4d\	4f#\
4r	.	.	4r	8ddd\L	4r	.	4r	.	4r	4r
.	.	.	.	8ccc#\J	.	.	.	.	.	.
4r	.	.	4r	4ddd\	4r	.	4r	.	4r	4r
=200	=200	=200	=200	=200	=200	=200	=200	=200	=200	=200
!	!	!	!	!	!	!	!	!	!	!LO:TX:a:t=1
4G\	x x 6	.	4b\	4ff#\	4G\	a-	4b\	a-	2.r	2.r
4r	.	.	4gg\	4bb\	4r	.	4gg\	.	.	.
4r	.	.	4ff#\	4aa\	4r	.	4ff#\	.	.	.
=201	=201	=201	=201	=201	=201	=201	=201	=201	=201	=201
!	!	!	!LO:LB:g=original	!LO:LB:g=original	!	!	!LO:LB:g=original	!	!	!
4GG/	x x 6	.	4ee\	4gg\	4G\	.	4ee\	.	4e\	4g\
2AA/	x 6 4	.	4dd\	4ff#\	2A\	.	4dd\	.	4d\	4f#\
.	x 7 3	.	4cc#\	4ee\	.	.	4cc#\	.	4A/	4e\
=202	=202	=202	=202	=202	=202	=202	=202	=202	=202	=202
4D\	.	.	(8ff#\L	8ff#\L	4D/	-men	4dd\	-men	2d\	2f#\
.	.	.	8aa\)	8aa\	.	.	.	.	.	.
4F#\	.	.	(8ddd\	8ddd\	4r	.	4r	.	.	.
.	.	.	8aa\)	8aa\J	.	.	.	.	.	.
4D\	.	.	(8ff#\	8ff#\L	4r	.	4r	.	4f#\	4a\
.	.	.	8aa\J)	8aa\J	.	.	.	.	.	.
=203	=203	=203	=203	=203	=203	=203	=203	=203	=203	=203
4G\	.	.	8gg\L	(8gg\L	4G\	a-	4b\	a-	4g\	4b\
.	.	.	8bb\	8bb\J)	.	.	.	.	.	.
4A\	x 6 4	.	8ff#\	8ff#|\L	2A\	.	4dd\	.	4f#\	4a\
.	.	.	8aa\	8aa|\	.	.	.	.	.	.
4AA/	x 7 3	.	8ee\	8ee|\	.	.	4cc#\	.	4e\	4g\
.	.	.	8gg\J	8gg|\J	.	.	.	.	.	.
=204	=204	=204	=204	=204	=204	=204	=204	=204	=204	=204
!	!	!	!	!	!	!	!	!	!LO:TX:a:t=2	!LO:TX:a:t=2
4D\	.	.	8ff#\L	8ff#\L	4D/	-men	4dd\	-men	1.r	1.r
.	.	.	8aa\	8aa\	.	.	.	.	.	.
4F#\	.	.	8ddd\	8ddd\	4r	.	4r	.	.	.
.	.	.	8aa\	8aa\	.	.	.	.	.	.
4D\	.	.	8ff#\	8ff#\	4r	.	4r	.	.	.
.	.	.	8aa\J	8aa\J	.	.	.	.	.	.
=205	=205	=205	=205	=205	=205	=205	=205	=205	=205	=205
4G\	x x 6	.	8ee\L	8ee\L	4GG/	a-	4ee\	a-	.	.
.	.	.	8gg\	8gg\	.	.	.	.	.	.
4A\	x 6 4	.	8dd\	8dd\	2AA/	.	4ff#\	.	.	.
.	.	.	8ff#\	8ff#\	.	.	.	.	.	.
4AA/	x 5 3	.	8cc#\	8cc#\	.	.	4ee\	.	.	.
.	.	.	8ee\J	8ee\J	.	.	.	.	.	.
=206	=206	=206	=206	=206	=206	=206	=206	=206	=206	=206
!LO:LB:g=original	!	!	!	!	!	!	!	!	!	!
4D\	.	.	8ff#\L	8ff#\L	4D/	-men	4dd\	-men	2A/	2f#\
.	.	.	8aa\	8aa\	.	.	.	.	.	.
4F#\	.	.	8ddd\	8ddd\	4r	.	4r	.	.	.
.	.	.	8aa\	8aa\	.	.	.	.	.	.
4D\	.	.	8ff#\	8ff#\	4r	.	4r	.	4f#\	4a\
.	.	.	8aa\J	8aa\J	.	.	.	.	.	.
=207	=207	=207	=207	=207	=207	=207	=207	=207	=207	=207
4G\	.	.	8gg\L	8gg\L	4G\	a-	4b\	a-	4g\	4b\
.	.	.	8bb\	8bb\	.	.	.	.	.	.
4A\	x 6 4	.	8ff#\	8ff#\	2A\	.	4dd\	.	4f#\	4a\
.	.	.	8aa\	8aa\	.	.	.	.	.	.
4AA/	x 7 3	.	8ee\	8ee\	.	.	4cc#\	.	4e\	4g\
.	.	.	8gg\J	8gg\J	.	.	.	.	.	.
=208	=208	=208	=208	=208	=208	=208	=208	=208	=208	=208
!	!	!	!LO:LB:g=original	!LO:LB:g=original	!LO:LB:g=original	!	!	!	!LO:TX:a:t=2	!LO:TX:a:t=2
4D\	.	.	8ff#\L	8ff#\L	4D/	-men	4dd\	-men	1.r	1.r
.	.	.	8aa\	8aa\	.	.	.	.	.	.
4F#\	.	.	8ddd\	8ddd\	4r	.	4r	.	.	.
.	.	.	8aa\	8aa\	.	.	.	.	.	.
4D\	.	.	8ff#\	8ff#\	4r	.	4r	.	.	.
.	.	.	8aa\J	8aa\J	.	.	.	.	.	.
=209	=209	=209	=209	=209	=209	=209	=209	=209	=209	=209
4G\	x x 6	.	(8ee\L	8ee\L	4GG/	a-	4ee\	a-	.	.
.	.	.	8gg\)	8gg\	.	.	.	.	.	.
4A\	x 6 4	.	(8dd\	8dd\	2AA/	-men	4ff#\	.	.	.
.	.	.	8ff#\)	8ff#\	.	.	.	.	.	.
4AA/	x 7 3	.	(8cc#\	8cc#\	.	.	4ee\	-men	.	.
.	.	.	8ee\J)	8ee\J	.	.	.	.	.	.
=210	=210	=210	=210	=210	=210	=210	=210	=210	=210	=210
!	!	!	!	!	!	!	!LO:LB:g=original	!	!	!LO:LB:g=original
4D\	.	.	4d/ 4a 4ff#	4d/ 4a 4ff#	4r	.	4r	.	4d\	4f#\
8d\L	.	.	4r	4r	8d\L	a-	8ff#\L	a-	4r	4r
8c#\J	.	.	.	.	8c#\J	.	8ee\J	.	.	.
4d\	.	.	4r	4r	4d\	-men	4ff#\	-men	4r	4r
=211	=211	=211	=211	=211	=211	=211	=211	=211	=211	=211
4r	.	.	4d/ 4a 4ff#	4d/ 4a 4ff#	4r	.	4r	.	4d\	4f#\
*	*	*	*	*	*	*ij	*	*ij	*	*
8d\L	.	.	4r	4r	8d\L	a-	(8ff#\L	a-	4r	4r
8c#\J	.	.	.	.	8c#\J	.	8ee\J)	.	.	.
4d\	.	.	4r	4r	4d\	-men	4ff#\	-men	4r	4r
*	*	*	*	*	*	*Xij	*	*	*	*
=212	=212	=212	=212	=212	=212	=212	=212	=212	=212	=212
!	!	!	!	!	!	!	!	!	!LO:LB:g=original	!
4r	.	.	4d/ 4a 4ff#	4d/ 4a 4aa	4r	.	4r	.	4d\	4f#\
8d\L	.	.	4r	4r	8d\L	a-	(8ff#\L	a-	4r	4r
8c#\J	.	.	.	.	8c#\J	.	8ee\J)	.	.	.
8d\L	.	.	4r	4r	8d\L	.	(8ff#\L	-men	4r	4r
*	*	*	*	*	*	*	*	*Xij	*	*
8c#\J	.	.	.	.	8c#\J	.	8ee\J)	.	.	.
=213	=213	=213	=213	=213	=213	=213	=213	=213	=213	=213
!LO:LB:g=original	!	!	!	!	!	!	!	!	!	!
4d\	.	.	4d/ 4a 4ff#	4d/ 4ff# 4ddd	4d\	-men	4ee\	a-	4d\	4f#\
8D/L	.	.	4d/ 4a 4ff#	4d/ 4ff# 4ddd	8D/L	a-	2a\	.	4d\	4f#\
8C#/	.	.	.	.	8C#/J	.	.	.	.	.
8D/	.	.	4d/ 4a 4ff#	4d/ 4ff# 4ddd	8D/L	.	.	.	4d\	4f#\
8C#/J	.	.	.	.	8C#/J	.	.	.	.	.
=214	=214	=214	=214	=214	=214	=214	=214	=214	=214	=214
!	!	!	!	!	!LO:LB:g=original	!	!	!	!	!
2D/	.	.	2d/ 2a 2ff#	2d/ 2ff# 2ddd	2D/	-men	2a\	-men	2d\	2f#\
4r	.	.	4r	4r	4r	.	4r	.	4r	4r
!LO:TX:b:t=Finis	!	!	!LO:TX:b:t=Finis	!LO:TX:b:t=Finis	!LO:TX:b:t=Finis.	!	!	!	!	!
==	==	==	==	==	==	==	==	==	==	==
*-	*-	*-	*-	*-	*-	*-	*-	*-	*-	*-
!!!system-decoration: [(s1,s2)][(s3,s4)][(s5,s6)]s7
!!!RDF**kern: | = vertical stroke
!!!ENC: Filip Voros
!!!END: 2021-11-16
!!!ENC: Krzysztof Stępień
!!!END: 2021-11-25
!!!RDF**kern: > = above
!!!RDF**kern: < = below
